; generated by Slic3r 1.37.2-prusa3d-win64 on 2018-01-21 at 10:22:57

; 

; external perimeters extrusion width = 0.45mm
; perimeters extrusion width = 0.45mm
; infill extrusion width = 0.45mm
; solid infill extrusion width = 0.45mm
; top infill extrusion width = 0.42mm
; support material extrusion width = 0.35mm
; first layer extrusion width = 0.42mm

M107
G90        ;absolute positioning
G28 ; home all axes
G1 Z5 F5000 ; lift nozzle
M140 S55 ; set bed temp
M190 S55 ; wait for bed temp
M104 S210 ; set extruder temp
M109 S210 ; wait for extruder temp
G1 Y-2.0 F1000.0 ; go outside pritn area
G1 Z0 F1000 ; lift nozzle
G1 X60.0 E9.0  F1000.0 ; intro line
G1 X100.0 E12.5  F1000.0 ; intro line
G1 Z1
; Filament gcode

G21 ; set units to millimeters
G90 ; use absolute coordinates
M82 ; use absolute distances for extrusion
G92 E0
G1 E-5.00000 F2700.00000
G92 E0
G1 Z0.350 F7200.000
G1 X79.566 Y80.724 F7200.000
G1 E5.00000 F2700.00000
M204 S1000
G1 F1200
G1 X82.480 Y78.032 E5.15105
G1 X85.761 Y75.784 E5.30252
G1 X89.733 Y73.844 E5.47083
G1 X93.964 Y72.564 E5.63914
G1 X97.899 Y71.980 E5.79062
G1 X101.873 Y71.971 E5.94193
G1 X106.251 Y72.605 E6.11040
G1 X110.464 Y73.929 E6.27855
G1 X114.048 Y75.665 E6.43019
G1 X117.340 Y77.899 E6.58167
G1 X120.597 Y80.887 E6.74998
G1 X123.334 Y84.358 E6.91829
G1 X125.316 Y87.807 E7.06976
G1 X126.779 Y91.511 E7.22140
G1 X127.785 Y95.811 E7.38955
G1 X128.092 Y100.216 E7.55770
G1 X127.785 Y104.187 E7.70934
G1 X126.909 Y108.067 E7.86081
G1 X125.317 Y112.191 E8.02912
G1 X123.086 Y116.006 E8.19743
G1 X120.599 Y119.111 E8.34891
G1 X117.689 Y121.823 E8.50039
G1 X114.051 Y124.334 E8.66870
G1 X110.062 Y126.229 E8.83684
G1 X106.254 Y127.394 E8.98848
G1 X102.322 Y127.996 E9.13996
G1 X97.914 Y128.022 E9.30777
G1 X93.732 Y127.391 E9.46884
G1 X89.522 Y126.064 E9.63692
G1 X85.952 Y124.335 E9.78797
G1 X82.660 Y122.101 E9.93944
G1 X79.394 Y119.104 E10.10825
G1 X76.666 Y115.642 E10.27606
G1 X74.684 Y112.193 E10.42754
G1 X73.221 Y108.489 E10.57918
G1 X72.215 Y104.189 E10.74732
G1 X71.908 Y99.784 E10.91547
G1 X72.215 Y95.813 E11.06711
G1 X73.089 Y91.942 E11.21826
G1 X74.601 Y87.996 E11.37912
G1 X76.785 Y84.169 E11.54694
G1 X79.528 Y80.771 E11.71323
G1 X79.810 Y80.998 F7200.000
G1 F1200
G1 X82.709 Y78.318 E11.86355
G1 X85.967 Y76.087 E12.01392
G1 X89.868 Y74.184 E12.17917
G1 X94.021 Y72.926 E12.34442
G1 X97.927 Y72.345 E12.49479
G1 X101.872 Y72.337 E12.64500
G1 X106.171 Y72.963 E12.81041
G1 X110.311 Y74.262 E12.97566
G1 X113.866 Y75.983 E13.12603
G1 X117.133 Y78.201 E13.27640
G1 X120.329 Y81.137 E13.44165
G1 X123.018 Y84.543 E13.60690
G1 X124.986 Y87.967 E13.75727
G1 X126.436 Y91.640 E13.90764
G1 X127.423 Y95.866 E14.07289
G1 X127.726 Y100.192 E14.23798
G1 X127.423 Y104.133 E14.38851
G1 X126.552 Y107.985 E14.53888
G1 X124.986 Y112.033 E14.70413
G1 X122.798 Y115.780 E14.86938
G1 X120.330 Y118.863 E15.01975
G1 X117.440 Y121.555 E15.17013
G1 X113.867 Y124.017 E15.33537
G1 X109.951 Y125.879 E15.50047
G1 X106.171 Y127.037 E15.65100
G1 X102.267 Y127.633 E15.80137
G1 X97.936 Y127.656 E15.96631
G1 X93.817 Y127.035 E16.12491
G1 X89.681 Y125.734 E16.29002
G1 X86.134 Y124.017 E16.44006
G1 X82.867 Y121.799 E16.59044
G1 X79.665 Y118.857 E16.75599
G1 X76.982 Y115.457 E16.92093
G1 X75.014 Y112.033 E17.07130
G1 X73.562 Y108.356 E17.22183
G1 X72.577 Y104.134 E17.38693
G1 X72.274 Y99.808 E17.55202
G1 X72.577 Y95.867 E17.70255
G1 X73.446 Y92.023 E17.85261
G1 X74.940 Y88.136 E18.01118
G1 X77.086 Y84.378 E18.17596
G1 X79.773 Y81.045 E18.33897
G1 X80.055 Y81.272 F7200.000
G1 F1200
G1 X82.939 Y78.603 E18.48859
G1 X86.173 Y76.390 E18.63783
G1 X90.003 Y74.525 E18.80004
G1 X94.076 Y73.288 E18.96212
G1 X97.953 Y72.710 E19.11136
G1 X101.872 Y72.704 E19.26059
G1 X106.087 Y73.319 E19.42281
G1 X110.153 Y74.593 E19.58503
G1 X113.685 Y76.301 E19.73441
G1 X116.927 Y78.503 E19.88365
G1 X120.059 Y81.385 E20.04572
G1 X122.701 Y84.727 E20.20794
G1 X124.657 Y88.128 E20.35732
G1 X126.095 Y91.774 E20.50656
G1 X127.061 Y95.923 E20.66878
G1 X127.360 Y100.169 E20.83085
G1 X127.060 Y104.080 E20.98023
G1 X126.195 Y107.903 E21.12947
G1 X124.657 Y111.872 E21.29155
G1 X122.511 Y115.552 E21.45376
G1 X120.060 Y118.615 E21.60315
G1 X117.191 Y121.286 E21.75238
G1 X113.682 Y123.701 E21.91460
G1 X109.839 Y125.531 E22.07667
G1 X106.088 Y126.681 E22.22606
G1 X102.217 Y127.271 E22.37515
G1 X97.961 Y127.290 E22.53722
G1 X93.747 Y126.637 E22.69958
G1 X90.004 Y125.475 E22.84882
G1 X86.473 Y123.783 E22.99792
G1 X82.945 Y121.402 E23.15999
G1 X79.933 Y118.607 E23.31645
G1 X77.299 Y115.273 E23.47824
G1 X75.343 Y111.872 E23.62762
G1 X73.905 Y108.226 E23.77686
G1 X72.939 Y104.077 E23.93908
G1 X72.640 Y99.831 E24.10115
G1 X72.939 Y95.923 E24.25039
G1 X73.804 Y92.105 E24.39948
G1 X75.279 Y88.274 E24.55577
G1 X77.390 Y84.583 E24.71770
G1 X80.018 Y81.319 E24.87725
G1 F5760
G1 X82.939 Y78.603 E23.10109
G1 F5760
G1 X86.173 Y76.390 E21.35576
G1 F5760
G1 X88.654 Y75.182 E20.12725
G1 E19.87725 F2700.00000
G92 E0
G1 X92.607 Y95.732 F7200.000
G1 E5.00000 F2700.00000
G1 F1200
G1 X100.000 Y91.464 E5.32504
G1 X107.393 Y95.732 E5.65009
G1 X107.393 Y104.268 E5.97513
G1 X100.000 Y108.536 E6.30018
G1 X92.607 Y104.268 E6.62522
G1 X92.607 Y95.792 E6.94798
G1 X92.974 Y95.943 F7200.000
G1 F1200
G1 X100.000 Y91.887 E7.25691
G1 X107.026 Y95.943 E7.56585
G1 X107.026 Y104.057 E7.87479
G1 X100.000 Y108.113 E8.18372
G1 X92.974 Y104.057 E8.49266
G1 X92.974 Y96.003 E8.79931
G1 X93.340 Y96.155 F7200.000
G1 F1200
G1 X100.000 Y92.310 E9.09214
G1 X106.660 Y96.155 E9.38497
G1 X106.660 Y103.845 E9.67780
G1 X100.000 Y107.690 E9.97062
G1 X93.340 Y103.845 E10.26345
G1 X93.340 Y96.215 E10.55400
G1 X93.140 Y95.808 F7200.000
G1 F5760
G1 X100.000 Y92.310 E7.11597
G1 F5760
G1 X102.551 Y93.783 E5.80400
G1 E5.55400 F2700.00000
G92 E0
G1 X123.993 Y100.822 F7200.000
G1 E5.00000 F2700.00000
G1 F1200
G1 X123.786 Y103.585 E5.10551
G1 X122.986 Y107.090 E5.24241
G1 X121.673 Y110.437 E5.37930
G1 X119.875 Y113.550 E5.51620
G1 X117.633 Y116.361 E5.65310
G1 X114.998 Y118.807 E5.79000
G1 X112.027 Y120.832 E5.92689
G1 X108.788 Y122.392 E6.06379
G1 X105.353 Y123.452 E6.20069
G1 X101.798 Y123.987 E6.33758
G1 X98.202 Y123.987 E6.47448
G1 X94.647 Y123.452 E6.61138
G1 X91.212 Y122.392 E6.74828
G1 X87.973 Y120.832 E6.88517
G1 X85.002 Y118.807 E7.02207
G1 X82.367 Y116.361 E7.15897
G1 X80.125 Y113.550 E7.29587
G1 X78.328 Y110.437 E7.43276
G1 X77.014 Y107.090 E7.56966
G1 X76.214 Y103.585 E7.70656
G1 X75.945 Y100.000 E7.84345
G1 X76.214 Y96.415 E7.98035
G1 X77.014 Y92.910 E8.11725
G1 X78.328 Y89.563 E8.25415
G1 X80.125 Y86.450 E8.39104
G1 X82.367 Y83.639 E8.52794
G1 X85.002 Y81.193 E8.66484
G1 X87.973 Y79.168 E8.80173
G1 X91.212 Y77.608 E8.93863
G1 X94.647 Y76.548 E9.07553
G1 X98.202 Y76.013 E9.21243
G1 X101.798 Y76.013 E9.34932
G1 X105.353 Y76.548 E9.48622
G1 X108.788 Y77.608 E9.62312
G1 X112.027 Y79.168 E9.76001
G1 X114.998 Y81.193 E9.89691
G1 X117.633 Y83.639 E10.03381
G1 X119.875 Y86.450 E10.17071
G1 X121.673 Y89.563 E10.30760
G1 X122.986 Y92.910 E10.44450
G1 X123.786 Y96.415 E10.58140
G1 X124.055 Y100.000 E10.71829
G1 X123.998 Y100.762 E10.74740
G1 X124.363 Y100.790 F7200.000
G1 F1200
G1 X124.149 Y103.640 E10.85624
G1 X123.337 Y107.199 E10.99522
G1 X122.003 Y110.596 E11.13421
G1 X120.178 Y113.757 E11.27320
G1 X117.903 Y116.611 E11.41219
G1 X115.227 Y119.094 E11.55118
G1 X112.211 Y121.150 E11.69016
G1 X108.922 Y122.734 E11.82915
G1 X105.434 Y123.810 E11.96814
G1 X101.825 Y124.354 E12.10713
G1 X98.175 Y124.354 E12.24612
G1 X94.566 Y123.810 E12.38510
G1 X91.078 Y122.734 E12.52409
G1 X87.789 Y121.150 E12.66308
G1 X84.773 Y119.094 E12.80207
G1 X82.097 Y116.611 E12.94106
G1 X79.822 Y113.757 E13.08004
G1 X77.997 Y110.596 E13.21903
G1 X76.663 Y107.199 E13.35802
G1 X75.851 Y103.640 E13.49701
G1 X75.578 Y100.000 E13.63599
G1 X75.851 Y96.360 E13.77498
G1 X76.663 Y92.801 E13.91397
G1 X77.997 Y89.404 E14.05296
G1 X79.822 Y86.243 E14.19195
G1 X82.097 Y83.389 E14.33093
G1 X84.773 Y80.906 E14.46992
G1 X87.789 Y78.850 E14.60891
G1 X91.078 Y77.266 E14.74790
G1 X94.566 Y76.190 E14.88689
G1 X98.175 Y75.646 E15.02587
G1 X101.825 Y75.646 E15.16486
G1 X105.434 Y76.190 E15.30385
G1 X108.922 Y77.266 E15.44284
G1 X112.211 Y78.850 E15.58183
G1 X115.227 Y80.906 E15.72081
G1 X117.903 Y83.389 E15.85980
G1 X120.178 Y86.243 E15.99879
G1 X122.003 Y89.404 E16.13778
G1 X123.337 Y92.801 E16.27677
G1 X124.149 Y96.360 E16.41575
G1 X124.422 Y100.000 E16.55474
G1 X124.367 Y100.730 E16.58260
G1 X124.733 Y100.757 F7200.000
G1 F1200
G1 X124.513 Y103.695 E16.69477
G1 X123.688 Y107.307 E16.83585
G1 X122.334 Y110.756 E16.97693
G1 X120.482 Y113.964 E17.11801
G1 X118.172 Y116.861 E17.25909
G1 X115.456 Y119.381 E17.40017
G1 X112.395 Y121.468 E17.54125
G1 X109.057 Y123.076 E17.68233
G1 X105.516 Y124.168 E17.82340
G1 X101.853 Y124.720 E17.96448
G1 X98.147 Y124.720 E18.10556
G1 X94.484 Y124.168 E18.24664
G1 X90.943 Y123.076 E18.38772
G1 X87.605 Y121.468 E18.52880
G1 X84.544 Y119.381 E18.66988
G1 X81.828 Y116.861 E18.81095
G1 X79.518 Y113.964 E18.95203
G1 X77.666 Y110.756 E19.09311
G1 X76.312 Y107.307 E19.23419
G1 X75.487 Y103.695 E19.37527
G1 X75.211 Y100.000 E19.51635
G1 X75.487 Y96.305 E19.65743
G1 X76.312 Y92.693 E19.79851
G1 X77.666 Y89.244 E19.93958
G1 X79.518 Y86.036 E20.08066
G1 X81.828 Y83.139 E20.22174
G1 X84.544 Y80.619 E20.36282
G1 X87.605 Y78.532 E20.50390
G1 X90.943 Y76.924 E20.64498
G1 X94.484 Y75.832 E20.78606
G1 X98.147 Y75.280 E20.92714
G1 X101.853 Y75.280 E21.06821
G1 X105.516 Y75.832 E21.20929
G1 X109.057 Y76.924 E21.35037
G1 X112.395 Y78.532 E21.49145
G1 X115.456 Y80.619 E21.63253
G1 X118.172 Y83.139 E21.77361
G1 X120.482 Y86.036 E21.91469
G1 X122.334 Y89.244 E22.05576
G1 X123.688 Y92.693 E22.19684
G1 X124.513 Y96.305 E22.33792
G1 X124.789 Y100.000 E22.47900
G1 X124.737 Y100.697 E22.50562
G1 X124.380 Y100.945 F7200.000
G1 F5760
G1 X124.513 Y103.695 E21.16708
G1 F5760
G1 X123.688 Y107.307 E19.51719
G1 F5760
G1 X122.334 Y110.756 E17.86729
G1 F5760
G1 X122.209 Y110.973 E17.75562
G1 E17.50562 F2700.00000
G92 E0
G1 X121.725 Y110.003 F7200.000
G1 E5.00000 F2700.00000
G1 F1200
G1 X107.667 Y95.945 E5.76123
G1 X107.667 Y96.466 E5.78118
G1 X121.451 Y110.250 E6.52758
G1 X121.268 Y110.588 E6.54230
G1 X107.667 Y96.987 E7.27880
G1 X107.667 Y97.508 E7.29875
G1 X121.077 Y110.918 E8.02492
G1 X120.887 Y111.248 E8.03952
G1 X107.667 Y98.029 E8.75537
G1 X107.667 Y98.550 E8.77532
G1 X120.696 Y111.579 E9.48084
G1 X120.505 Y111.909 E9.49544
G1 X107.667 Y99.071 E10.19063
G1 X107.667 Y99.592 E10.21058
G1 X120.315 Y112.239 E10.89545
G1 X120.124 Y112.570 E10.91005
G1 X107.667 Y100.113 E11.58459
G1 X107.667 Y100.634 E11.60454
G1 X119.933 Y112.900 E12.26876
G1 X119.743 Y113.230 E12.28336
G1 X107.667 Y101.155 E12.93725
G1 X107.667 Y101.676 E12.95719
G1 X119.532 Y113.540 E13.59966
G1 X119.301 Y113.830 E13.61385
G1 X107.667 Y102.197 E14.24380
G1 X107.667 Y102.718 E14.26375
G1 X119.069 Y114.120 E14.88118
G1 X118.838 Y114.410 E14.89538
G1 X107.667 Y103.239 E15.50029
G1 X107.667 Y103.760 E15.52024
G1 X118.607 Y114.700 E16.11264
G1 X118.376 Y114.989 E16.12683
G1 X107.667 Y104.281 E16.70671
G1 X107.667 Y104.427 E16.71229
G1 X107.430 Y104.564 E16.72281
G1 X118.145 Y115.279 E17.30305
G1 X117.914 Y115.569 E17.31725
G1 X107.099 Y104.755 E17.90286
G1 X106.769 Y104.946 E17.91746
G1 X117.682 Y115.859 E18.50845
G1 X117.451 Y116.149 E18.52264
G1 X106.439 Y105.136 E19.11899
G1 X106.108 Y105.327 E19.13360
G1 X117.184 Y116.403 E19.73338
G1 X116.914 Y116.654 E19.74750
G1 X105.778 Y105.518 E20.35054
G1 X105.448 Y105.708 E20.36514
G1 X116.644 Y116.905 E20.97143
G1 X116.374 Y117.155 E20.98555
G1 X105.117 Y105.899 E21.59509
G1 X104.787 Y106.090 E21.60969
G1 X116.103 Y117.406 E22.22249
G1 X115.833 Y117.657 E22.23660
G1 X104.457 Y106.280 E22.85265
G1 X104.127 Y106.471 E22.86725
G1 X115.563 Y117.908 E23.48655
G1 X115.293 Y118.158 E23.50067
G1 X103.796 Y106.662 E24.12322
G1 X103.466 Y106.853 E24.13782
G1 X115.022 Y118.409 E24.76362
G1 X114.741 Y118.649 E24.77777
G1 X103.136 Y107.043 E25.40624
G1 X102.805 Y107.234 E25.42084
G1 X114.432 Y118.860 E26.05042
G1 X114.122 Y119.071 E26.06478
G1 X102.475 Y107.425 E26.69547
G1 X102.145 Y107.615 E26.71007
G1 X113.812 Y119.283 E27.34188
G1 X113.502 Y119.494 E27.35623
G1 X101.814 Y107.806 E27.98914
G1 X101.484 Y107.997 E28.00375
G1 X113.193 Y119.705 E28.63777
G1 X112.883 Y119.916 E28.65213
G1 X101.154 Y108.187 E29.28726
G1 X100.824 Y108.378 E29.30186
G1 X112.573 Y120.127 E29.93811
G1 X112.263 Y120.339 E29.95246
G1 X100.493 Y108.569 E30.58982
G1 X100.163 Y108.759 E30.60442
G1 X111.953 Y120.550 E31.24289
G1 X111.610 Y120.728 E31.25769
G1 X98.925 Y108.043 E31.94461
G1 F5760
G1 X106.468 Y115.585 E27.19461
G1 E26.94461 F2700.00000
G92 E0
G1 X97.692 Y107.331 F7200.000
G1 E5.00000 F2700.00000
G1 F1200
G1 X111.382 Y121.021 E5.74132
G1 X111.031 Y121.190 F7200.000
G1 F1200
G1 X96.460 Y106.619 E6.53034
G1 F5760
G1 X104.002 Y114.162 E1.78034
G1 E1.53034 F2700.00000
G92 E0
G1 X95.227 Y105.908 F7200.000
G1 E5.00000 F2700.00000
G1 F1200
G1 X110.679 Y121.359 E5.83674
G1 X110.327 Y121.529 F7200.000
G1 F1200
G1 X93.994 Y105.196 E6.72118
G1 F5760
G1 X101.537 Y112.738 E1.97118
G1 E1.72118 F2700.00000
G92 E0
G1 X92.762 Y104.484 F7200.000
G1 E5.00000 F2700.00000
G1 F1200
G1 X109.852 Y121.575 E5.92547
G1 X109.500 Y121.744 E5.94041
G1 X78.255 Y90.499 E7.63238
G1 X78.402 Y90.125 E7.64777
G1 X92.333 Y104.055 E8.40211
G1 X92.333 Y103.534 E8.42206
G1 X78.549 Y89.751 E9.16846
G1 X78.732 Y89.412 E9.18318
G1 X92.333 Y103.013 E9.91968
G1 X92.333 Y102.492 E9.93963
G1 X78.922 Y89.082 E10.66581
G1 X79.113 Y88.752 E10.68041
G1 X92.333 Y101.971 E11.39626
G1 X92.333 Y101.450 E11.41621
G1 X79.304 Y88.421 E12.12173
G1 X79.495 Y88.091 E12.13633
G1 X92.333 Y100.929 E12.83153
G1 X92.333 Y100.408 E12.85148
G1 X79.685 Y87.761 E13.53634
G1 X79.876 Y87.431 E13.55095
G1 X92.333 Y99.887 E14.22549
G1 X92.333 Y99.366 E14.24544
G1 X80.067 Y87.100 E14.90965
G1 X80.257 Y86.770 E14.92426
G1 X92.333 Y98.845 E15.57815
G1 X92.333 Y98.324 E15.59809
G1 X80.468 Y86.460 E16.24056
G1 X80.699 Y86.170 E16.25476
G1 X92.333 Y97.803 E16.88471
G1 X92.333 Y97.282 E16.90466
G1 X80.931 Y85.880 E17.52209
G1 X81.162 Y85.590 E17.53628
G1 X92.333 Y96.761 E18.14120
G1 X92.333 Y96.240 E18.16115
G1 X81.393 Y85.300 E18.75355
G1 X81.624 Y85.011 E18.76774
G1 X92.333 Y95.719 E19.34763
G1 X92.333 Y95.573 E19.35321
G1 X92.570 Y95.436 E19.36373
G1 X81.855 Y84.721 E19.94397
G1 X82.086 Y84.431 E19.95816
G1 X92.901 Y95.245 E20.54378
G1 X93.231 Y95.055 E20.55838
G1 X82.317 Y84.141 E21.14936
G1 X82.549 Y83.851 E21.16356
G1 X93.561 Y94.864 E21.75991
G1 X93.892 Y94.673 E21.77451
G1 X82.815 Y83.597 E22.37429
G1 X83.086 Y83.346 E22.38841
G1 X94.222 Y94.482 E22.99145
G1 X94.552 Y94.292 E23.00605
G1 X83.356 Y83.096 E23.61234
G1 X83.626 Y82.845 E23.62646
G1 X94.882 Y94.101 E24.23600
G1 X95.213 Y93.910 E24.25060
G1 X83.896 Y82.594 E24.86339
G1 X84.167 Y82.343 E24.87751
G1 X95.543 Y93.720 E25.49356
G1 X95.873 Y93.529 E25.50816
G1 X84.437 Y82.093 E26.12746
G1 X84.707 Y81.842 E26.14157
G1 X96.204 Y93.338 E26.76412
G1 X96.534 Y93.148 E26.77873
G1 X84.977 Y81.591 E27.40453
G1 X85.258 Y81.351 E27.41868
G1 X96.864 Y92.957 E28.04715
G1 X97.195 Y92.766 E28.06175
G1 X85.568 Y81.140 E28.69133
G1 X85.878 Y80.929 E28.70569
G1 X97.525 Y92.575 E29.33637
G1 X97.855 Y92.385 E29.35098
G1 X86.188 Y80.717 E29.98278
G1 X86.498 Y80.506 E29.99714
G1 X98.185 Y92.194 E30.63005
G1 X98.516 Y92.003 E30.64465
G1 X86.807 Y80.295 E31.27867
G1 X87.117 Y80.084 E31.29303
G1 X98.846 Y91.813 E31.92816
G1 X99.176 Y91.622 E31.94277
G1 X87.427 Y79.873 E32.57901
G1 X87.737 Y79.661 E32.59337
G1 X99.507 Y91.431 E33.23072
G1 X99.837 Y91.241 E33.24533
G1 X88.047 Y79.450 E33.88379
G1 X88.390 Y79.272 E33.89859
G1 X101.075 Y91.957 E34.58550
G1 F5760
G1 X93.532 Y84.415 E29.83550
G1 E29.58550 F2700.00000
G92 E0
G1 X102.307 Y92.669 F7200.000
G1 E5.00000 F2700.00000
G1 F1200
G1 X88.741 Y79.103 E5.73462
G1 X89.093 Y78.934 E5.74956
G1 X103.540 Y93.381 E6.53189
G1 F5760
G1 X95.997 Y85.838 E1.78189
G1 E1.53189 F2700.00000
G92 E0
G1 X104.773 Y94.092 F7200.000
G1 E5.00000 F2700.00000
G1 F1200
G1 X89.445 Y78.764 E5.83004
