; generated by Slic3r 1.37.2-prusa3d-win64 on 2018-01-21 at 16:57:41

; 

; external perimeters extrusion width = 0.45mm
; perimeters extrusion width = 0.45mm
; infill extrusion width = 0.45mm
; solid infill extrusion width = 0.45mm
; top infill extrusion width = 0.42mm
; support material extrusion width = 0.35mm
; first layer extrusion width = 0.42mm

M107
G90        ;absolute positioning
G28 ; home all axes
G1 Z5 F5000 ; lift nozzle
M140 S55 ; set bed temp
M190 S55 ; wait for bed temp
M104 S210 ; set extruder temp
M109 S210 ; wait for extruder temp
G1 Y-2.0 F1000.0 ; go outside pritn area
G1 Z0 F1000 ; lift nozzle
G1 X60.0 E9.0  F1000.0 ; intro line
G1 X100.0 E12.5  F1000.0 ; intro line
G1 Z1
; Filament gcode

G21 ; set units to millimeters
G90 ; use absolute coordinates
M82 ; use absolute distances for extrusion
G92 E0
G1 E-5.00000 F2700.00000
G92 E0
G1 Z0.350 F7200.000
G1 X74.792 Y73.892 F7200.000
G1 E5.00000 F2700.00000
M204 S1000
G1 F1200
G1 X76.794 Y72.334 E5.09658
G1 X79.031 Y71.147 E5.19300
G1 X81.005 Y70.448 E5.27275
G1 X83.111 Y70.032 E5.35449
G1 X85.450 Y69.919 E5.44365
G1 X115.429 Y69.919 E6.58518
G1 X117.828 Y70.184 E6.67711
G1 X120.078 Y70.802 E6.76596
G1 X122.202 Y71.758 E6.85464
G1 X124.278 Y73.131 E6.94941
G1 X125.999 Y74.712 E7.03839
G1 X127.313 Y76.320 E7.11747
G1 X128.383 Y78.100 E7.19656
G1 X129.346 Y80.409 E7.29182
G1 X129.849 Y82.505 E7.37389
G1 X130.064 Y84.989 E7.46882
G1 X130.058 Y115.178 E8.61836
G1 X129.884 Y117.315 E8.69999
G1 X129.357 Y119.557 E8.78769
G1 X128.499 Y121.685 E8.87505
G1 X127.356 Y123.618 E8.96059
G1 X125.680 Y125.620 E9.05997
G1 X124.106 Y127.008 E9.13989
G1 X122.195 Y128.246 E9.22659
G1 X119.856 Y129.269 E9.32383
G1 X117.834 Y129.815 E9.40358
G1 X115.672 Y130.072 E9.48648
G1 X85.455 Y130.081 E10.63704
G1 X83.431 Y130.005 E10.71417
G1 X80.786 Y129.484 E10.81684
G1 X78.802 Y128.759 E10.89725
G1 X76.751 Y127.638 E10.98626
G1 X74.966 Y126.274 E11.07181
G1 X73.506 Y124.772 E11.15156
G1 X72.020 Y122.706 E11.24847
G1 X70.917 Y120.417 E11.34521
G1 X70.295 Y118.417 E11.42496
G1 X69.949 Y116.193 E11.51067
G1 X69.941 Y83.921 E12.73952
G1 X70.293 Y81.592 E12.82919
G1 X70.919 Y79.576 E12.90960
G1 X72.110 Y77.152 E13.01244
G1 X73.350 Y75.404 E13.09401
G1 X74.751 Y73.935 E13.17131
G1 X75.016 Y74.188 F7200.000
G1 F1200
G1 X76.994 Y72.641 E13.26694
G1 X79.158 Y71.490 E13.36025
G1 X81.099 Y70.802 E13.43868
G1 X83.180 Y70.392 E13.51944
G1 X85.449 Y70.285 E13.60593
G1 X115.429 Y70.285 E14.74749
G1 X117.761 Y70.544 E14.83684
G1 X119.951 Y71.146 E14.92334
G1 X122.020 Y72.075 E15.00969
G1 X124.038 Y73.408 E15.10176
G1 X125.718 Y74.947 E15.18854
G1 X127.014 Y76.532 E15.26651
G1 X128.068 Y78.288 E15.34447
G1 X128.999 Y80.528 E15.43684
G1 X129.494 Y82.594 E15.51776
G1 X129.697 Y84.991 E15.60936
G1 X129.693 Y115.154 E16.75790
G1 X129.523 Y117.251 E16.83800
G1 X129.009 Y119.443 E16.92373
G1 X128.170 Y121.524 E17.00915
G1 X127.046 Y123.423 E17.09317
G1 X125.434 Y125.348 E17.18880
G1 X123.887 Y126.715 E17.26738
G1 X122.015 Y127.928 E17.35234
G1 X119.755 Y128.917 E17.44626
G1 X117.763 Y129.456 E17.52485
G1 X115.636 Y129.707 E17.60639
G1 X85.456 Y129.715 E18.75560
G1 X83.458 Y129.640 E18.83171
G1 X80.906 Y129.138 E18.93074
G1 X78.956 Y128.427 E19.00979
G1 X76.948 Y127.329 E19.09691
G1 X75.205 Y125.996 E19.18047
G1 X73.770 Y124.518 E19.25890
G1 X72.337 Y122.521 E19.35251
G1 X71.265 Y120.304 E19.44628
G1 X70.652 Y118.337 E19.52471
G1 X70.314 Y116.157 E19.60874
G1 X70.306 Y83.943 E20.83535
G1 X70.650 Y81.673 E20.92278
G1 X71.267 Y79.691 E21.00183
G1 X72.419 Y77.350 E21.10116
G1 X73.631 Y75.639 E21.18099
G1 X74.974 Y74.232 E21.25510
G1 X75.239 Y74.485 F7200.000
G1 F1200
G1 X75.319 Y74.401 E21.25950
G1 X77.192 Y72.950 E21.34972
G1 X79.283 Y71.835 E21.43994
G1 X81.198 Y71.155 E21.51733
G1 X83.244 Y70.752 E21.59675
G1 X85.453 Y70.651 E21.68092
G1 X115.428 Y70.651 E22.82232
G1 X117.694 Y70.904 E22.90912
G1 X119.825 Y71.490 E22.99330
G1 X121.842 Y72.396 E23.07748
G1 X123.798 Y73.685 E23.16670
G1 X125.437 Y75.182 E23.25120
G1 X126.716 Y76.744 E23.32809
G1 X127.753 Y78.475 E23.40491
G1 X128.653 Y80.646 E23.49440
G1 X129.137 Y82.679 E23.57396
G1 X129.331 Y84.995 E23.66246
G1 X129.327 Y115.132 E24.81001
G1 X129.161 Y117.193 E24.88874
G1 X128.660 Y119.330 E24.97235
G1 X127.841 Y121.363 E25.05581
G1 X126.739 Y123.223 E25.13811
G1 X125.189 Y125.075 E25.23007
G1 X123.667 Y126.422 E25.30746
G1 X121.837 Y127.607 E25.39048
G1 X119.657 Y128.564 E25.48114
G1 X117.695 Y129.096 E25.55853
G1 X115.605 Y129.342 E25.63867
G1 X85.456 Y129.349 E26.78668
G1 X83.480 Y129.274 E26.86196
G1 X81.025 Y128.791 E26.95722
G1 X79.108 Y128.094 E27.03490
G1 X77.149 Y127.022 E27.11995
G1 X75.447 Y125.721 E27.20153
G1 X74.034 Y124.264 E27.27878
G1 X72.651 Y122.332 E27.36929
G1 X71.614 Y120.191 E27.45985
G1 X71.010 Y118.256 E27.53704
G1 X70.678 Y116.120 E27.61935
G1 X70.672 Y83.965 E28.84374
G1 X71.008 Y81.753 E28.92893
G1 X71.616 Y79.802 E29.00675
G1 X72.727 Y77.548 E29.10244
G1 X73.915 Y75.870 E29.18070
G1 X75.198 Y74.528 E29.25140
G1 F5760
G1 X75.319 Y74.401 E29.17322
G1 F5760
G1 X77.192 Y72.950 E28.11807
G1 F5760
G1 X79.283 Y71.835 E27.06293
G1 F5760
G1 X81.198 Y71.155 E26.15787
G1 F5760
G1 X83.244 Y70.752 E25.22911
G1 F5760
G1 X84.877 Y70.678 E24.50140
G1 E24.25140 F2700.00000
G92 E0
G1 X81.691 Y105.132 F7200.000
G1 E5.00000 F2700.00000
G1 F1200
G1 X88.309 Y105.132 E5.25200
G1 X88.309 Y107.679 E5.34897
G1 X88.894 Y107.928 E5.37319
G1 X90.247 Y108.867 E5.43587
G1 X91.366 Y110.038 E5.49756
G1 X92.233 Y111.422 E5.55977
G1 X92.804 Y112.953 E5.62199
G1 X93.055 Y114.568 E5.68420
G1 X92.975 Y116.200 E5.74641
G1 X92.568 Y117.782 E5.80862
G1 X91.850 Y119.250 E5.87084
G1 X90.851 Y120.543 E5.93305
G1 X89.612 Y121.608 E5.99526
G1 X88.184 Y122.402 E6.05748
G1 X86.625 Y122.892 E6.11969
G1 X85.000 Y123.057 E6.18190
G1 X83.375 Y122.892 E6.24412
G1 X81.816 Y122.402 E6.30633
G1 X80.388 Y121.608 E6.36854
G1 X79.149 Y120.543 E6.43076
G1 X78.150 Y119.250 E6.49297
G1 X77.432 Y117.782 E6.55518
G1 X77.025 Y116.200 E6.61740
G1 X76.945 Y114.568 E6.67961
G1 X77.196 Y112.953 E6.74182
G1 X77.767 Y111.422 E6.80403
G1 X78.634 Y110.038 E6.86625
G1 X79.763 Y108.857 E6.92846
G1 X81.107 Y107.927 E6.99067
G1 X81.691 Y107.679 E7.01485
G1 X81.691 Y105.192 E7.10953
G1 X82.057 Y105.498 F7200.000
G1 F1200
G1 X87.943 Y105.498 E7.33363
G1 X87.943 Y107.921 E7.42587
G1 X88.716 Y108.250 E7.45789
G1 X90.007 Y109.147 E7.51773
G1 X91.075 Y110.264 E7.57659
G1 X91.903 Y111.585 E7.63596
G1 X92.448 Y113.046 E7.69534
G1 X92.687 Y114.587 E7.75471
G1 X92.611 Y116.145 E7.81408
G1 X92.222 Y117.655 E7.87345
G1 X91.537 Y119.055 E7.93283
G1 X90.584 Y120.289 E7.99220
G1 X89.402 Y121.306 E8.05157
G1 X88.039 Y122.064 E8.11095
G1 X86.551 Y122.531 E8.17032
G1 X85.000 Y122.689 E8.22969
G1 X83.449 Y122.531 E8.28906
G1 X81.961 Y122.064 E8.34844
G1 X80.598 Y121.306 E8.40781
G1 X79.416 Y120.289 E8.46718
G1 X78.463 Y119.055 E8.52655
G1 X77.778 Y117.655 E8.58593
G1 X77.389 Y116.145 E8.64530
G1 X77.313 Y114.587 E8.70467
G1 X77.552 Y113.046 E8.76405
G1 X78.097 Y111.585 E8.82342
G1 X78.925 Y110.264 E8.88279
G1 X80.002 Y109.137 E8.94216
G1 X81.284 Y108.250 E9.00154
G1 X82.057 Y107.921 E9.03352
G1 X82.057 Y105.558 E9.12347
G1 X82.424 Y105.865 F7200.000
G1 F1200
G1 X87.576 Y105.865 E9.31968
G1 X87.576 Y108.163 E9.40719
G1 X88.538 Y108.572 E9.44700
G1 X89.768 Y109.426 E9.50400
G1 X90.785 Y110.490 E9.56003
G1 X91.573 Y111.748 E9.61656
G1 X92.092 Y113.139 E9.67310
G1 X92.319 Y114.607 E9.72963
G1 X92.247 Y116.089 E9.78616
G1 X91.877 Y117.527 E9.84269
G1 X91.224 Y118.861 E9.89923
G1 X90.317 Y120.036 E9.95576
G1 X89.191 Y121.004 E10.01229
G1 X87.893 Y121.725 E10.06882
G1 X86.477 Y122.170 E10.12536
G1 X85.000 Y122.321 E10.18189
G1 X83.523 Y122.170 E10.23842
G1 X82.107 Y121.725 E10.29495
G1 X80.809 Y121.004 E10.35149
G1 X79.683 Y120.036 E10.40802
G1 X78.776 Y118.861 E10.46455
G1 X78.123 Y117.527 E10.52108
G1 X77.753 Y116.089 E10.57762
G1 X77.681 Y114.607 E10.63415
G1 X77.908 Y113.139 E10.69068
G1 X78.427 Y111.748 E10.74721
G1 X79.215 Y110.490 E10.80375
G1 X80.241 Y109.417 E10.86028
G1 X81.462 Y108.572 E10.91681
G1 X82.424 Y108.163 E10.95660
G1 X82.424 Y105.925 E11.04183
G1 X82.790 Y106.231 F7200.000
G1 F1200
G1 X87.210 Y106.231 E11.21013
G1 X87.210 Y108.405 E11.29292
G1 X88.360 Y108.895 E11.34052
G1 X89.529 Y109.706 E11.39468
G1 X90.494 Y110.716 E11.44788
G1 X91.243 Y111.911 E11.50158
G1 X91.735 Y113.232 E11.55527
G1 X91.951 Y114.626 E11.60896
G1 X91.882 Y116.034 E11.66265
G1 X91.531 Y117.400 E11.71635
G1 X90.912 Y118.667 E11.77004
G1 X90.050 Y119.783 E11.82373
G1 X88.981 Y120.702 E11.87742
G1 X87.748 Y121.387 E11.93111
G1 X86.403 Y121.809 E11.98481
G1 X85.000 Y121.952 E12.03850
G1 X83.597 Y121.809 E12.09219
G1 X82.252 Y121.387 E12.14588
G1 X81.019 Y120.702 E12.19957
G1 X79.950 Y119.783 E12.25327
G1 X79.088 Y118.667 E12.30696
G1 X78.469 Y117.400 E12.36065
G1 X78.118 Y116.034 E12.41434
G1 X78.049 Y114.626 E12.46804
G1 X78.265 Y113.232 E12.52173
G1 X78.757 Y111.911 E12.57542
G1 X79.506 Y110.716 E12.62911
G1 X80.480 Y109.697 E12.68280
G1 X81.640 Y108.895 E12.73650
G1 X82.790 Y108.405 E12.78409
G1 X82.790 Y106.291 E12.86459
G1 X82.844 Y105.835 F7200.000
G1 F5760
G1 X87.210 Y106.231 E10.89613
G1 F5760
G1 X87.210 Y108.405 E9.92792
G1 F5760
G1 X88.360 Y108.895 E9.37127
G1 F5760
G1 X89.529 Y109.706 E8.73782
G1 F5760
G1 X90.494 Y110.716 E8.11562
G1 F5760
G1 X90.495 Y110.718 E8.11459
G1 E7.86459 F2700.00000
G92 E0
G1 X86.146 Y104.766 F7200.000
G1 E5.00000 F2700.00000
G1 F1200
G1 X83.681 Y104.766 E5.09383
G1 X83.815 Y104.740 E5.09902
G1 X85.412 Y104.681 E5.15987
G1 X86.087 Y104.759 E5.18575
G1 F5760
G1 X83.681 Y104.766 E4.11434
G1 F5760
G1 X83.815 Y104.740 E4.05365
G1 F5760
G1 X85.412 Y104.681 E3.34200
G1 F5760
G1 X86.087 Y104.759 E3.03935
G1 E0.18575 F2700.00000
G92 E0
G1 X76.024 Y109.931 F7200.000
G1 E5.00000 F2700.00000
G1 F1200
G1 X76.130 Y109.718 E5.00908
G1 X77.038 Y108.425 E5.06924
G1 X78.133 Y107.288 E5.12935
G1 X79.406 Y106.321 E5.19020
G1 X80.779 Y105.574 E5.24971
G1 X81.325 Y105.378 E5.27180
G1 X81.325 Y107.436 E5.35017
G1 X80.929 Y107.605 E5.36654
G1 X79.524 Y108.577 E5.43159
G1 X78.344 Y109.812 E5.49665
G1 X77.436 Y111.260 E5.56170
G1 X76.840 Y112.860 E5.62675
G1 X76.578 Y114.549 E5.69181
G1 X76.661 Y116.255 E5.75686
G1 X77.087 Y117.909 E5.82191
G1 X77.837 Y119.444 E5.88697
G1 X78.882 Y120.796 E5.95202
G1 X80.177 Y121.910 E6.01707
G1 X81.670 Y122.740 E6.08213
G1 X83.300 Y123.252 E6.14718
G1 X85.000 Y123.425 E6.21223
G1 X86.700 Y123.252 E6.27729
G1 X88.330 Y122.740 E6.34234
G1 X89.823 Y121.910 E6.40739
G1 X91.118 Y120.796 E6.47245
G1 X92.163 Y119.444 E6.53750
G1 X92.913 Y117.909 E6.60255
G1 X93.339 Y116.255 E6.66761
G1 X93.422 Y114.549 E6.73266
G1 X93.160 Y112.860 E6.79772
G1 X92.564 Y111.260 E6.86277
G1 X91.656 Y109.812 E6.92782
G1 X90.486 Y108.587 E6.99233
G1 X89.072 Y107.605 E7.05786
G1 X88.675 Y107.436 E7.07429
G1 X88.675 Y105.363 E7.15325
G1 X89.930 Y105.925 E7.20560
G1 X91.256 Y106.784 E7.26576
G1 X92.436 Y107.835 E7.32592
G1 X93.441 Y109.054 E7.38608
G1 X94.248 Y110.412 E7.44624
G1 X94.839 Y111.878 E7.50640
G1 X95.199 Y113.416 E7.56656
G1 X95.320 Y114.991 E7.62672
G1 X95.199 Y116.566 E7.68688
G1 X94.839 Y118.104 E7.74699
G1 X94.239 Y119.585 E7.80784
G1 X93.441 Y120.928 E7.86735
G1 X92.436 Y122.147 E7.92751
G1 X91.256 Y123.198 E7.98767
G1 X89.930 Y124.057 E8.04783
G1 X88.488 Y124.703 E8.10799
G1 X86.965 Y125.122 E8.16815
G1 X85.395 Y125.303 E8.22831
G1 X83.817 Y125.243 E8.28847
G1 X82.267 Y124.942 E8.34858
G1 X80.764 Y124.400 E8.40943
G1 X79.391 Y123.653 E8.46894
G1 X78.134 Y122.695 E8.52910
G1 X77.038 Y121.557 E8.58926
G1 X76.130 Y120.265 E8.64942
G1 X75.429 Y118.850 E8.70953
G1 X74.949 Y117.326 E8.77038
G1 X74.711 Y115.781 E8.82989
G1 X74.711 Y114.201 E8.89005
G1 X74.952 Y112.640 E8.95021
G1 X75.428 Y111.134 E9.01037
G1 X75.997 Y109.985 E9.05917
G1 X75.669 Y109.822 F7200.000
G1 F1200
G1 X75.814 Y109.530 E9.07160
G1 X76.755 Y108.192 E9.13390
G1 X77.889 Y107.013 E9.19616
G1 X79.206 Y106.013 E9.25916
G1 X80.628 Y105.239 E9.32080
G1 X82.168 Y104.686 E9.38310
G1 X83.773 Y104.375 E9.44536
G1 X85.427 Y104.314 E9.50836
G1 X87.035 Y104.500 E9.57000
G1 X88.612 Y104.933 E9.63230
G1 X90.105 Y105.602 E9.69460
G1 X91.479 Y106.492 E9.75690
G1 X92.700 Y107.580 E9.81920
G1 X93.741 Y108.843 E9.88151
G1 X94.577 Y110.249 E9.94381
G1 X95.189 Y111.767 E10.00611
G1 X95.562 Y113.360 E10.06841
G1 X95.687 Y114.991 E10.13071
G1 X95.562 Y116.623 E10.19301
G1 X95.189 Y118.215 E10.25528
G1 X94.569 Y119.748 E10.31827
G1 X93.741 Y121.140 E10.37991
G1 X92.700 Y122.402 E10.44221
G1 X91.479 Y123.491 E10.50452
G1 X90.105 Y124.380 E10.56682
G1 X88.612 Y125.049 E10.62912
G1 X87.035 Y125.483 E10.69142
G1 X85.409 Y125.670 E10.75372
G1 X83.774 Y125.608 E10.81602
G1 X82.169 Y125.296 E10.87829
G1 X80.613 Y124.735 E10.94128
G1 X79.191 Y123.962 E11.00292
G1 X77.890 Y122.970 E11.06522
G1 X76.755 Y121.791 E11.12753
G1 X75.814 Y120.453 E11.18983
G1 X75.088 Y118.987 E11.25209
G1 X74.591 Y117.409 E11.31508
G1 X74.344 Y115.809 E11.37672
G1 X74.344 Y114.173 E11.43903
G1 X74.594 Y112.556 E11.50133
G1 X75.088 Y110.996 E11.56363
G1 X75.642 Y109.876 E11.61121
G1 X75.314 Y109.714 F7200.000
G1 F1200
G1 X75.498 Y109.342 E11.62700
G1 X76.472 Y107.958 E11.69145
G1 X77.645 Y106.739 E11.75586
G1 X79.007 Y105.704 E11.82100
G1 X80.478 Y104.904 E11.88477
G1 X82.071 Y104.332 E11.94921
G1 X83.732 Y104.010 E12.01363
G1 X85.441 Y103.947 E12.07876
G1 X87.105 Y104.139 E12.14254
G1 X88.737 Y104.587 E12.20698
G1 X90.281 Y105.280 E12.27142
G1 X91.702 Y106.200 E12.33587
G1 X92.965 Y107.326 E12.40031
G1 X94.042 Y108.631 E12.46475
G1 X94.907 Y110.086 E12.52920
G1 X95.539 Y111.656 E12.59364
G1 X95.925 Y113.304 E12.65809
G1 X96.055 Y114.991 E12.72253
G1 X95.925 Y116.679 E12.78697
G1 X95.540 Y118.326 E12.85139
G1 X94.898 Y119.911 E12.91653
G1 X94.042 Y121.351 E12.98030
G1 X92.965 Y122.657 E13.04474
G1 X91.702 Y123.783 E13.10918
G1 X90.281 Y124.703 E13.17363
G1 X88.737 Y125.395 E13.23807
G1 X87.105 Y125.844 E13.30252
G1 X85.423 Y126.038 E13.36696
G1 X83.732 Y125.973 E13.43140
G1 X82.071 Y125.651 E13.49582
G1 X80.462 Y125.070 E13.56095
G1 X78.991 Y124.270 E13.62473
G1 X77.645 Y123.244 E13.68917
G1 X76.472 Y122.025 E13.75361
G1 X75.498 Y120.640 E13.81806
G1 X74.747 Y119.124 E13.88247
G1 X74.234 Y117.493 E13.94761
G1 X73.978 Y115.837 E14.01138
G1 X73.978 Y114.145 E14.07582
G1 X74.236 Y112.472 E14.14027
G1 X74.747 Y110.859 E14.20471
G1 X75.287 Y109.767 E14.25108
G1 X74.959 Y109.605 F7200.000
G1 F1200
G1 X75.182 Y109.154 E14.27023
G1 X76.188 Y107.724 E14.33681
G1 X77.400 Y106.464 E14.40338
G1 X78.807 Y105.395 E14.47066
G1 X80.328 Y104.569 E14.53656
G1 X81.973 Y103.978 E14.60315
G1 X83.690 Y103.645 E14.66972
G1 X85.455 Y103.580 E14.73699
G1 X87.175 Y103.778 E14.80290
G1 X88.861 Y104.242 E14.86948
G1 X90.456 Y104.957 E14.93607
G1 X91.924 Y105.907 E15.00265
G1 X93.230 Y107.071 E15.06924
G1 X94.342 Y108.420 E15.13582
G1 X95.236 Y109.923 E15.20241
G1 X95.890 Y111.545 E15.26900
G1 X96.288 Y113.248 E15.33558
G1 X96.422 Y114.991 E15.40217
G1 X96.288 Y116.735 E15.46875
G1 X95.890 Y118.437 E15.53532
G1 X95.227 Y120.075 E15.60260
G1 X94.342 Y121.562 E15.66850
G1 X93.230 Y122.912 E15.73509
G1 X91.924 Y124.075 E15.80167
G1 X90.456 Y125.026 E15.86826
G1 X88.861 Y125.741 E15.93485
G1 X87.175 Y126.204 E16.00143
G1 X85.437 Y126.405 E16.06802
G1 X83.690 Y126.338 E16.13460
G1 X81.974 Y126.005 E16.20117
G1 X80.312 Y125.405 E16.26845
G1 X78.791 Y124.578 E16.33435
G1 X77.401 Y123.518 E16.40094
G1 X76.188 Y122.258 E16.46752
G1 X75.182 Y120.828 E16.53411
G1 X74.406 Y119.261 E16.60068
G1 X73.876 Y117.576 E16.66795
G1 X73.612 Y115.866 E16.73386
G1 X73.612 Y114.117 E16.80044
G1 X73.878 Y112.389 E16.86703
G1 X74.406 Y110.721 E16.93362
G1 X74.932 Y109.659 E16.97877
G1 X74.604 Y109.496 F7200.000
G1 F1200
G1 X74.866 Y108.967 E17.00127
G1 X75.905 Y107.490 E17.07000
G1 X77.156 Y106.190 E17.13872
G1 X78.608 Y105.087 E17.20814
G1 X80.177 Y104.233 E17.27617
G1 X81.876 Y103.623 E17.34490
G1 X83.648 Y103.280 E17.41362
G1 X85.470 Y103.213 E17.48304
G1 X87.245 Y103.417 E17.55108
G1 X88.985 Y103.896 E17.61980
