; generated by Slic3r 1.37.2-prusa3d-win64 on 2018-01-21 at 14:56:20

; 

; external perimeters extrusion width = 0.45mm
; perimeters extrusion width = 0.45mm
; infill extrusion width = 0.45mm
; solid infill extrusion width = 0.45mm
; top infill extrusion width = 0.42mm
; support material extrusion width = 0.35mm
; first layer extrusion width = 0.42mm

M107
G90        ;absolute positioning
G28 ; home all axes
G1 Z5 F5000 ; lift nozzle
M140 S55 ; set bed temp
M190 S55 ; wait for bed temp
M104 S210 ; set extruder temp
M109 S210 ; wait for extruder temp
G1 Y-2.0 F1000.0 ; go outside pritn area
G1 Z0 F1000 ; lift nozzle
G1 X60.0 E9.0  F1000.0 ; intro line
G1 X100.0 E12.5  F1000.0 ; intro line
G1 Z1
; Filament gcode

G21 ; set units to millimeters
G90 ; use absolute coordinates
M82 ; use absolute distances for extrusion
G92 E0
G1 E-5.00000 F2700.00000
G92 E0
G1 Z0.350 F7200.000
G1 X89.235 Y89.399 F7200.000
G1 E5.00000 F2700.00000
M204 S1000
G1 F1200
G1 X91.214 Y87.715 E5.09895
G1 X93.179 Y86.519 E5.18654
G1 X95.317 Y85.647 E5.27447
G1 X98.015 Y85.029 E5.37987
G1 X100.491 Y84.912 E5.47424
G1 X103.145 Y85.237 E5.57604
G1 X105.622 Y85.995 E5.67471
G1 X107.923 Y87.160 E5.77288
G1 X110.135 Y88.838 E5.87861
G1 X111.725 Y90.513 E5.96654
G1 X113.022 Y92.412 E6.05413
G1 X114.126 Y94.746 E6.15242
G1 X114.855 Y97.420 E6.25799
G1 X115.077 Y100.002 E6.35666
G1 X114.855 Y102.580 E6.45516
G1 X114.128 Y105.250 E6.56057
G1 X113.022 Y107.588 E6.65902
G1 X111.725 Y109.487 E6.74661
G1 X110.135 Y111.162 E6.83454
G1 X107.923 Y112.840 E6.94027
G1 X105.622 Y114.005 E7.03844
G1 X103.149 Y114.762 E7.13695
G1 X100.487 Y115.088 E7.23907
G1 X97.810 Y114.934 E7.34117
G1 X95.559 Y114.438 E7.42893
G1 X93.408 Y113.586 E7.51702
G1 X91.026 Y112.159 E7.62275
G1 X89.085 Y110.455 E7.72109
G1 X87.453 Y108.432 E7.82009
G1 X86.130 Y106.000 E7.92549
G1 X85.312 Y103.552 E8.02378
G1 X84.934 Y101.283 E8.11137
G1 X84.923 Y98.982 E8.19897
G1 X85.358 Y96.227 E8.30519
G1 X86.217 Y93.787 E8.40369
G1 X87.482 Y91.525 E8.50236
G1 X89.197 Y89.446 E8.60499
G1 X89.477 Y89.677 F7200.000
G1 F1200
G1 X91.408 Y88.026 E8.70170
G1 X93.346 Y86.844 E8.78815
G1 X95.453 Y85.987 E8.87476
G1 X98.071 Y85.391 E8.97701
G1 X100.490 Y85.278 E9.06921
G1 X103.071 Y85.596 E9.16822
G1 X105.480 Y86.333 E9.26415
G1 X107.724 Y87.468 E9.35992
G1 X109.872 Y89.093 E9.46247
G1 X111.441 Y90.745 E9.54923
G1 X112.719 Y92.617 E9.63553
G1 X113.791 Y94.895 E9.73141
G1 X114.495 Y97.487 E9.83366
G1 X114.711 Y100.001 E9.92973
G1 X114.496 Y102.511 E10.02566
G1 X113.791 Y105.106 E10.12806
G1 X112.719 Y107.383 E10.22388
G1 X111.440 Y109.256 E10.31023
G1 X109.871 Y110.908 E10.39700
G1 X107.723 Y112.533 E10.49955
G1 X105.482 Y113.666 E10.59517
G1 X103.074 Y114.404 E10.69109
G1 X100.489 Y114.722 E10.79026
G1 X97.885 Y114.576 E10.88956
G1 X95.664 Y114.087 E10.97617
G1 X93.549 Y113.248 E11.06278
G1 X91.237 Y111.859 E11.16549
G1 X89.350 Y110.202 E11.26110
G1 X87.760 Y108.232 E11.35749
G1 X86.475 Y105.875 E11.45974
G1 X85.673 Y103.488 E11.55561
G1 X85.299 Y101.249 E11.64207
G1 X85.289 Y98.982 E11.72836
G1 X85.714 Y96.315 E11.83123
G1 X86.552 Y93.935 E11.92731
G1 X87.784 Y91.733 E12.02338
G1 X89.439 Y89.723 E12.12251
G1 X89.719 Y89.953 F7200.000
G1 F1200
G1 X91.600 Y88.338 E12.21689
G1 X93.511 Y87.172 E12.30216
G1 X95.589 Y86.327 E12.38757
G1 X98.128 Y85.753 E12.48667
G1 X100.490 Y85.644 E12.57671
G1 X102.998 Y85.955 E12.67295
G1 X105.342 Y86.673 E12.76631
G1 X107.527 Y87.777 E12.85953
G1 X109.608 Y89.347 E12.95877
G1 X111.156 Y90.975 E13.04433
G1 X112.415 Y92.823 E13.12945
G1 X113.455 Y95.041 E13.22277
G1 X114.135 Y97.554 E13.32187
G1 X114.345 Y100.001 E13.41538
G1 X114.135 Y102.447 E13.50888
G1 X113.455 Y104.959 E13.60798
G1 X112.415 Y107.177 E13.70126
G1 X111.156 Y109.026 E13.78642
G1 X109.610 Y110.651 E13.87184
G1 X107.526 Y112.224 E13.97122
G1 X105.342 Y113.328 E14.06444
G1 X102.997 Y114.046 E14.15780
G1 X100.489 Y114.356 E14.25404
G1 X97.962 Y114.217 E14.35039
G1 X95.771 Y113.736 E14.43581
G1 X93.687 Y112.908 E14.52122
G1 X91.451 Y111.561 E14.62061
G1 X89.611 Y109.946 E14.71382
G1 X88.067 Y108.032 E14.80747
G1 X86.819 Y105.748 E14.90657
G1 X86.034 Y103.426 E14.99989
G1 X85.664 Y101.218 E15.08516
G1 X85.655 Y98.982 E15.17029
G1 X86.071 Y96.398 E15.26996
G1 X86.886 Y94.085 E15.36332
G1 X88.085 Y91.942 E15.45682
G1 X89.681 Y90.000 E15.55257
G1 F5760
G1 X91.600 Y88.338 E14.42251
G1 F5760
G1 X93.511 Y87.172 E13.42530
G1 F5760
G1 X95.589 Y86.327 E12.42640
G1 F5760
G1 X98.128 Y85.753 E11.26745
G1 F5760
G1 X99.171 Y85.705 E10.80257
G1 E10.55257 F2700.00000
G92 E0
G1 X94.448 Y94.126 F7200.000
G1 E5.00000 F2700.00000
G1 F1200
G1 X95.913 Y93.031 E5.06965
G1 X96.669 Y92.699 E5.10110
G1 X96.669 Y90.141 E5.19850
G1 X103.287 Y90.141 E5.45050
G1 X103.287 Y92.699 E5.54790
G1 X104.044 Y93.031 E5.57935
G1 X105.509 Y94.126 E5.64900
G1 X106.691 Y95.524 E5.71870
G1 X107.526 Y97.151 E5.78835
G1 X107.974 Y98.925 E5.85800
G1 X108.011 Y100.754 E5.92767
G1 X107.634 Y102.545 E5.99734
G1 X106.864 Y104.204 E6.06700
G1 X105.740 Y105.647 E6.13665
G1 X104.321 Y106.799 E6.20626
G1 X102.672 Y107.604 E6.27611
G1 X100.894 Y108.016 E6.34563
G1 X99.063 Y108.016 E6.41535
G1 X97.278 Y107.602 E6.48510
G1 X95.642 Y106.802 E6.55445
G1 X94.217 Y105.647 E6.62429
G1 X93.093 Y104.204 E6.69396
G1 X92.322 Y102.544 E6.76364
G1 X91.946 Y100.747 E6.83355
G1 X91.983 Y98.926 E6.90289
G1 X92.430 Y97.151 E6.97260
G1 X93.266 Y95.524 E7.04225
G1 X94.409 Y94.172 E7.10967
G1 X94.689 Y94.409 F7200.000
G1 F1200
G1 X96.099 Y93.350 E7.17681
G1 X97.036 Y92.938 E7.21577
G1 X97.036 Y90.507 E7.30832
G1 X102.921 Y90.507 E7.53243
G1 X102.921 Y92.938 E7.62498
G1 X103.858 Y93.350 E7.66394
G1 X105.256 Y94.395 E7.73041
G1 X106.384 Y95.729 E7.79692
G1 X107.181 Y97.281 E7.86338
G1 X107.609 Y98.974 E7.92985
G1 X107.643 Y100.719 E7.99634
G1 X107.284 Y102.428 E8.06283
G1 X106.550 Y104.012 E8.12930
G1 X105.477 Y105.389 E8.19577
G1 X104.122 Y106.488 E8.26220
G1 X102.549 Y107.257 E8.32886
G1 X100.852 Y107.649 E8.39520
G1 X99.105 Y107.649 E8.46173
G1 X97.401 Y107.255 E8.52830
G1 X95.840 Y106.492 E8.59447
G1 X94.480 Y105.389 E8.66113
G1 X93.407 Y104.012 E8.72761
G1 X92.672 Y102.428 E8.79410
G1 X92.313 Y100.713 E8.86082
G1 X92.348 Y98.975 E8.92699
G1 X92.775 Y97.281 E8.99352
G1 X93.573 Y95.729 E9.05998
G1 X94.650 Y94.454 E9.12352
G1 X94.930 Y94.691 F7200.000
G1 F1200
G1 X96.285 Y93.668 E9.18815
G1 X97.402 Y93.177 E9.23463
G1 X97.402 Y90.874 E9.32233
G1 X102.555 Y90.874 E9.51853
G1 X102.555 Y93.177 E9.60624
G1 X103.672 Y93.668 E9.65272
G1 X105.003 Y94.663 E9.71599
G1 X106.077 Y95.933 E9.77933
G1 X106.836 Y97.411 E9.84260
G1 X107.243 Y99.023 E9.90589
G1 X107.276 Y100.685 E9.96919
G1 X106.934 Y102.312 E10.03250
G1 X106.235 Y103.820 E10.09578
G1 X105.213 Y105.131 E10.15907
G1 X103.924 Y106.178 E10.22231
G1 X102.426 Y106.909 E10.28580
G1 X100.810 Y107.283 E10.34894
G1 X99.147 Y107.283 E10.41229
G1 X97.525 Y106.907 E10.47568
G1 X96.038 Y106.181 E10.53867
G1 X94.743 Y105.131 E10.60215
G1 X93.722 Y103.820 E10.66544
G1 X93.022 Y102.312 E10.72874
G1 X92.680 Y100.678 E10.79228
G1 X92.714 Y99.025 E10.85527
G1 X93.120 Y97.412 E10.91861
G1 X93.880 Y95.933 E10.98189
G1 X94.891 Y94.737 E11.04155
G1 X95.171 Y94.973 F7200.000
G1 F1200
G1 X96.470 Y93.987 E11.10367
G1 X97.768 Y93.416 E11.15766
G1 X97.768 Y91.240 E11.24052
G1 X102.188 Y91.240 E11.40882
G1 X102.188 Y93.416 E11.49168
G1 X103.486 Y93.987 E11.54567
G1 X104.751 Y94.932 E11.60577
G1 X105.770 Y96.138 E11.66591
G1 X106.491 Y97.542 E11.72601
G1 X106.878 Y99.072 E11.78611
G1 X106.909 Y100.651 E11.84623
G1 X106.585 Y102.196 E11.90635
G1 X105.920 Y103.627 E11.96645
G1 X104.950 Y104.873 E12.02655
G1 X103.726 Y105.867 E12.08661
G1 X102.303 Y106.562 E12.14691
G1 X100.768 Y106.917 E12.20688
G1 X99.188 Y106.917 E12.26703
G1 X97.648 Y106.560 E12.32724
G1 X96.237 Y105.870 E12.38705
G1 X95.007 Y104.873 E12.44735
G1 X94.037 Y103.627 E12.50746
G1 X93.372 Y102.196 E12.56756
G1 X93.047 Y100.644 E12.62792
G1 X93.079 Y99.074 E12.68773
G1 X93.465 Y97.542 E12.74789
G1 X94.187 Y96.138 E12.80799
G1 X95.132 Y95.019 E12.86377
G1 X95.077 Y94.584 F7200.000
G1 F5760
G1 X96.470 Y93.987 E12.11121
G1 F5760
G1 X97.768 Y93.416 E11.47981
G1 F5760
G1 X97.768 Y91.240 E10.51079
G1 F5760
G1 X102.188 Y91.240 E8.54251
G1 F5760
G1 X102.188 Y92.203 E8.11377
G1 E7.86377 F2700.00000
G92 E0
G1 X101.071 Y89.775 F7200.000
G1 E5.00000 F2700.00000
G1 F1200
G1 X98.623 Y89.775 E5.09318
G1 X100.424 Y89.692 E5.16184
G1 X101.012 Y89.767 E5.18441
G1 F5760
G1 X98.623 Y89.775 E4.12056
G1 F5760
G1 X100.424 Y89.692 E3.31766
G1 F5760
G1 X101.012 Y89.767 E3.05374
G1 E0.18441 F2700.00000
G92 E0
G1 X91.039 Y94.921 F7200.000
G1 E5.00000 F2700.00000
G1 F1200
G1 X91.429 Y94.222 E5.03047
G1 X92.529 Y92.860 E5.09711
G1 X93.843 Y91.704 E5.16376
G1 X95.333 Y90.786 E5.23040
G1 X96.303 Y90.397 E5.27020
G1 X96.303 Y92.460 E5.34876
G1 X95.727 Y92.713 E5.37271
G1 X94.195 Y93.858 E5.44554
G1 X92.959 Y95.320 E5.51843
G1 X92.085 Y97.021 E5.59126
G1 X91.617 Y98.877 E5.66416
G1 X91.579 Y100.781 E5.73668
G1 X91.972 Y102.660 E5.80977
G1 X92.778 Y104.396 E5.88264
G1 X93.954 Y105.905 E5.95549
G1 X95.443 Y107.113 E6.02852
G1 X97.155 Y107.950 E6.10105
G1 X99.021 Y108.382 E6.17399
G1 X100.936 Y108.382 E6.24689
G1 X102.796 Y107.952 E6.31959
G1 X104.519 Y107.110 E6.39262
G1 X106.003 Y105.905 E6.46542
G1 X107.179 Y104.396 E6.53826
G1 X107.984 Y102.661 E6.61110
G1 X108.378 Y100.788 E6.68396
G1 X108.340 Y98.876 E6.75681
G1 X107.871 Y97.021 E6.82965
G1 X106.997 Y95.320 E6.90248
G1 X105.762 Y93.858 E6.97536
G1 X104.229 Y92.713 E7.04819
G1 X103.654 Y92.460 E7.07214
G1 X103.654 Y90.373 E7.15160
G1 X103.826 Y90.426 E7.15844
G1 X105.388 Y91.213 E7.22509
G1 X106.796 Y92.254 E7.29173
G1 X108.007 Y93.518 E7.35837
G1 X108.987 Y94.968 E7.42501
G1 X109.708 Y96.562 E7.49165
G1 X110.149 Y98.256 E7.55829
G1 X110.297 Y100.000 E7.62493
G1 X110.149 Y101.744 E7.69158
G1 X109.708 Y103.438 E7.75822
G1 X108.987 Y105.032 E7.82486
G1 X108.007 Y106.482 E7.89150
G1 X106.796 Y107.746 E7.95814
G1 X105.388 Y108.787 E8.02478
G1 X103.826 Y109.574 E8.09142
G1 X102.152 Y110.087 E8.15807
G1 X100.416 Y110.309 E8.22471
G1 X98.668 Y110.235 E8.29135
G1 X96.957 Y109.866 E8.35799
G1 X95.333 Y109.214 E8.42463
G1 X93.843 Y108.296 E8.49127
G1 X92.529 Y107.140 E8.55791
G1 X91.429 Y105.778 E8.62456
G1 X90.576 Y104.251 E8.69117
G1 X89.991 Y102.592 E8.75815
G1 X89.697 Y100.875 E8.82448
G1 X89.697 Y99.125 E8.89112
G1 X89.993 Y97.401 E8.95774
G1 X90.580 Y95.743 E9.02471
G1 X91.010 Y94.973 E9.05828
G1 X90.690 Y94.794 F7200.000
G1 F1200
G1 X91.125 Y94.016 E9.09222
G1 X92.263 Y92.606 E9.16124
G1 X93.624 Y91.408 E9.23026
G1 X95.167 Y90.458 E9.29927
G1 X96.849 Y89.782 E9.36829
G1 X98.621 Y89.400 E9.43729
G1 X100.440 Y89.324 E9.50663
G1 X102.230 Y89.554 E9.57533
G1 X103.963 Y90.084 E9.64435
G1 X105.581 Y90.900 E9.71336
G1 X107.038 Y91.978 E9.78238
G1 X108.293 Y93.287 E9.85140
G1 X109.308 Y94.788 E9.92041
G1 X110.054 Y96.440 E9.98943
G1 X110.511 Y98.194 E10.05844
G1 X110.665 Y100.000 E10.12746
G1 X110.511 Y101.806 E10.19648
G1 X110.054 Y103.560 E10.26549
G1 X109.308 Y105.212 E10.33451
G1 X108.293 Y106.713 E10.40352
G1 X107.038 Y108.022 E10.47254
G1 X105.581 Y109.100 E10.54156
G1 X103.963 Y109.916 E10.61057
G1 X102.230 Y110.446 E10.67959
G1 X100.432 Y110.677 E10.74860
G1 X98.621 Y110.600 E10.81762
G1 X96.849 Y110.218 E10.88664
G1 X95.167 Y109.542 E10.95565
G1 X93.624 Y108.592 E11.02467
G1 X92.263 Y107.394 E11.09368
G1 X91.125 Y105.984 E11.16270
G1 X90.241 Y104.402 E11.23170
G1 X89.636 Y102.685 E11.30104
G1 X89.331 Y100.906 E11.36974
G1 X89.331 Y99.094 E11.43876
G1 X89.637 Y97.308 E11.50776
G1 X90.245 Y95.591 E11.57710
G1 X90.661 Y94.847 E11.60957
G1 X90.341 Y94.668 F7200.000
G1 F1200
G1 X90.820 Y93.810 E11.64699
G1 X91.998 Y92.351 E11.71838
G1 X93.405 Y91.113 E11.78977
G1 X95.002 Y90.130 E11.86116
G1 X96.742 Y89.431 E11.93255
G1 X98.574 Y89.036 E12.00393
G1 X100.456 Y88.957 E12.07565
G1 X102.307 Y89.194 E12.14672
G1 X104.100 Y89.743 E12.21811
G1 X105.774 Y90.587 E12.28950
G1 X107.281 Y91.702 E12.36089
G1 X108.579 Y93.056 E12.43228
G1 X109.629 Y94.609 E12.50367
G1 X110.401 Y96.318 E12.57506
G1 X110.873 Y98.132 E12.64645
G1 X111.032 Y100.000 E12.71785
G1 X110.873 Y101.868 E12.78924
G1 X110.401 Y103.682 E12.86063
G1 X109.629 Y105.391 E12.93202
G1 X108.579 Y106.944 E13.00341
G1 X107.281 Y108.298 E13.07480
G1 X105.774 Y109.413 E13.14619
G1 X104.100 Y110.257 E13.21758
G1 X102.307 Y110.806 E13.28897
G1 X100.448 Y111.044 E13.36036
G1 X98.574 Y110.964 E13.43175
G1 X96.742 Y110.569 E13.50314
G1 X95.002 Y109.870 E13.57453
G1 X93.405 Y108.887 E13.64592
G1 X91.998 Y107.649 E13.71731
G1 X90.820 Y106.190 E13.78870
G1 X89.906 Y104.553 E13.86008
G1 X89.280 Y102.777 E13.93180
G1 X88.964 Y100.937 E14.00287
G1 X88.964 Y99.063 E14.07426
G1 X89.281 Y97.215 E14.14564
G1 X89.910 Y95.440 E14.21736
G1 X90.312 Y94.720 E14.24873
G1 X89.992 Y94.542 F7200.000
G1 F1200
G1 X90.516 Y93.604 E14.28962
G1 X91.733 Y92.097 E14.36338
G1 X93.187 Y90.817 E14.43715
G1 X94.836 Y89.801 E14.51091
G1 X96.634 Y89.079 E14.58468
G1 X98.527 Y88.671 E14.65843
G1 X100.472 Y88.590 E14.73253
G1 X102.385 Y88.835 E14.80597
G1 X104.237 Y89.402 E14.87973
G1 X105.967 Y90.274 E14.95350
G1 X107.524 Y91.426 E15.02726
G1 X108.865 Y92.825 E15.10103
G1 X109.950 Y94.430 E15.17479
G1 X110.748 Y96.195 E15.24856
G1 X111.236 Y98.070 E15.32232
G1 X111.400 Y100.000 E15.39609
G1 X111.236 Y101.930 E15.46986
G1 X110.748 Y103.805 E15.54362
G1 X109.950 Y105.570 E15.61739
G1 X108.865 Y107.175 E15.69115
G1 X107.524 Y108.574 E15.76492
G1 X105.967 Y109.726 E15.83868
G1 X104.237 Y110.598 E15.91245
G1 X102.385 Y111.165 E15.98621
G1 X100.463 Y111.411 E16.05998
G1 X98.528 Y111.329 E16.13374
G1 X96.634 Y110.921 E16.20751
G1 X94.836 Y110.199 E16.28127
G1 X93.187 Y109.183 E16.35504
G1 X91.733 Y107.903 E16.42880
G1 X90.516 Y106.396 E16.50257
G1 X89.571 Y104.705 E16.57633
G1 X88.924 Y102.870 E16.65042
G1 X88.598 Y100.969 E16.72386
G1 X88.598 Y99.031 E16.79762
G1 X88.925 Y97.122 E16.87138
G1 X89.575 Y95.288 E16.94548
G1 X89.963 Y94.594 E16.97574
G1 X89.643 Y94.415 F7200.000
G1 F1200
G1 X90.211 Y93.398 E17.02010
G1 X91.467 Y91.843 E17.09624
G1 X92.968 Y90.521 E17.17238
G1 X94.671 Y89.473 E17.24852
G1 X96.526 Y88.728 E17.32466
G1 X98.481 Y88.306 E17.40080
G1 X100.487 Y88.222 E17.47727
G1 X102.462 Y88.475 E17.55308
G1 X104.374 Y89.061 E17.62922
G1 X106.160 Y89.961 E17.70536
G1 X107.767 Y91.150 E17.78150
G1 X109.151 Y92.594 E17.85764
G1 X110.271 Y94.250 E17.93378
G1 X111.094 Y96.073 E18.00991
G1 X111.598 Y98.008 E18.08605
G1 X111.768 Y100.000 E18.16219
G1 X111.598 Y101.992 E18.23833
G1 X111.094 Y103.927 E18.31447
G1 X110.271 Y105.750 E18.39061
G1 X109.151 Y107.406 E18.46675
G1 X107.767 Y108.850 E18.54289
G1 X106.160 Y110.039 E18.61903
G1 X104.374 Y110.939 E18.69517
G1 X102.462 Y111.525 E18.77131
G1 X100.479 Y111.779 E18.84745
G1 X98.481 Y111.694 E18.92359
G1 X96.526 Y111.272 E18.99973
G1 X94.671 Y110.527 E19.07587
G1 X92.968 Y109.479 E19.15201
G1 X91.467 Y108.157 E19.22815
G1 X90.211 Y106.602 E19.30429
G1 X89.236 Y104.856 E19.38043
G1 X88.568 Y102.962 E19.45690
G1 X88.232 Y101.000 E19.53271
G1 X88.232 Y99.000 E19.60885
G1 X88.570 Y97.029 E19.68498
G1 X89.240 Y95.136 E19.76145
G1 X89.613 Y94.468 E19.79062
G1 X90.042 Y94.394 F7200.000
G1 F5760
G1 X90.211 Y93.398 E19.24511
G1 F5760
G1 X91.467 Y91.843 E18.35467
G1 F5760
G1 X92.968 Y90.521 E17.46422
G1 F5760
G1 X94.671 Y89.473 E16.57378
G1 F5760
G1 X96.526 Y88.728 E15.68333
G1 F5760
G1 X97.937 Y88.423 E15.04062
G1 E14.79062 F2700.00000
G92 E0
G1 X96.193 Y90.975 F7200.000
G1 E5.00000 F2700.00000
G1 F1200
G1 X96.023 Y90.805 E5.00926
G1 X95.649 Y90.956 E5.02486
G1 X96.028 Y91.335 E5.04558
G1 X96.028 Y91.860 E5.06586
G1 X95.298 Y91.130 E5.10572
G1 X94.973 Y91.331 E5.12046
G1 X95.955 Y92.313 E5.17408
G1 X95.590 Y92.473 E5.18947
G1 X94.648 Y91.531 E5.24092
G1 X94.323 Y91.731 E5.25566
G1 X95.289 Y92.697 E5.30843
G1 X94.989 Y92.922 E5.32292
G1 X93.999 Y91.932 E5.37695
G1 X93.720 Y92.178 E5.39132
G1 X94.688 Y93.147 E5.44419
G1 X94.387 Y93.371 E5.45868
G1 X93.440 Y92.424 E5.51039
G1 X93.161 Y92.670 E5.52476
G1 X94.087 Y93.596 E5.57531
