; generated by Slic3r 1.37.2-prusa3d-win64 on 2018-01-21 at 15:39:15

; 

; external perimeters extrusion width = 0.45mm
; perimeters extrusion width = 0.45mm
; infill extrusion width = 0.45mm
; solid infill extrusion width = 0.45mm
; top infill extrusion width = 0.42mm
; support material extrusion width = 0.35mm
; first layer extrusion width = 0.42mm

M107
G90        ;absolute positioning
G28 ; home all axes
G1 Z5 F5000 ; lift nozzle
M140 S55 ; set bed temp
M190 S55 ; wait for bed temp
M104 S210 ; set extruder temp
M109 S210 ; wait for extruder temp
G1 Y-2.0 F1000.0 ; go outside pritn area
G1 Z0 F1000 ; lift nozzle
G1 X60.0 E9.0  F1000.0 ; intro line
G1 X100.0 E12.5  F1000.0 ; intro line
G1 Z1
; Filament gcode

G21 ; set units to millimeters
G90 ; use absolute coordinates
M82 ; use absolute distances for extrusion
G92 E0
G1 E-5.00000 F2700.00000
G92 E0
G1 Z0.350 F7200.000
G1 X89.909 Y88.753 F7200.000
G1 E5.00000 F2700.00000
M204 S1000
G1 F1200
G1 X91.795 Y87.314 E5.09033
G1 X94.013 Y86.138 E5.18592
G1 X95.979 Y85.441 E5.26534
G1 X98.025 Y85.035 E5.34476
G1 X100.445 Y84.910 E5.43705
G1 X102.872 Y85.180 E5.53002
G1 X105.294 Y85.873 E5.62594
G1 X107.193 Y86.734 E5.70536
G1 X108.956 Y87.865 E5.78511
G1 X110.854 Y89.522 E5.88103
G1 X112.348 Y91.336 E5.97054
G1 X113.611 Y93.517 E6.06649
G1 X114.378 Y95.446 E6.14555
G1 X114.864 Y97.483 E6.22530
G1 X115.081 Y100.002 E6.32155
G1 X114.864 Y102.516 E6.41764
G1 X114.379 Y104.553 E6.49739
G1 X113.611 Y106.483 E6.57648
G1 X112.349 Y108.663 E6.67240
G1 X110.854 Y110.478 E6.76191
G1 X108.957 Y112.135 E6.85783
G1 X107.194 Y113.266 E6.93758
G1 X105.294 Y114.127 E7.01700
G1 X102.872 Y114.820 E7.11292
G1 X100.442 Y115.090 E7.20606
G1 X98.026 Y114.965 E7.29818
G1 X95.980 Y114.559 E7.37760
G1 X93.993 Y113.855 E7.45784
G1 X91.774 Y112.673 E7.55360
G1 X89.775 Y111.118 E7.65002
G1 X88.333 Y109.605 E7.72961
G1 X87.120 Y107.897 E7.80936
G1 X85.979 Y105.647 E7.90545
G1 X85.239 Y103.230 E8.00170
G1 X84.928 Y101.158 E8.08145
G1 X84.919 Y99.081 E8.16054
G1 X85.280 Y96.562 E8.25745
G1 X86.061 Y94.167 E8.35337
G1 X87.002 Y92.286 E8.43346
G1 X88.197 Y90.571 E8.51304
G1 X89.868 Y88.797 E8.60585
G1 X90.134 Y89.047 F7200.000
G1 F1200
G1 X91.990 Y87.623 E8.69495
G1 X94.140 Y86.482 E8.78764
G1 X96.077 Y85.794 E8.86591
G1 X98.094 Y85.395 E8.94419
G1 X100.448 Y85.276 E9.03392
G1 X102.798 Y85.539 E9.12399
G1 X105.147 Y86.208 E9.21698
G1 X107.020 Y87.057 E9.29526
G1 X108.756 Y88.172 E9.37384
G1 X110.591 Y89.777 E9.46669
G1 X112.046 Y91.543 E9.55381
G1 X113.270 Y93.652 E9.64665
G1 X114.028 Y95.554 E9.72461
G1 X114.506 Y97.561 E9.80320
G1 X114.715 Y99.999 E9.89635
G1 X114.507 Y102.436 E9.98950
G1 X114.029 Y104.444 E10.06809
G1 X113.271 Y106.346 E10.14605
G1 X112.045 Y108.458 E10.23904
G1 X110.590 Y110.224 E10.32617
G1 X108.755 Y111.829 E10.41901
G1 X107.021 Y112.942 E10.49744
G1 X105.145 Y113.792 E10.57587
G1 X102.796 Y114.461 E10.66887
G1 X100.442 Y114.724 E10.75909
G1 X98.092 Y114.605 E10.84867
G1 X96.076 Y114.205 E10.92694
G1 X94.123 Y113.512 E11.00584
G1 X91.972 Y112.364 E11.09868
G1 X90.037 Y110.861 E11.19199
G1 X88.617 Y109.374 E11.27026
G1 X87.423 Y107.691 E11.34885
G1 X86.318 Y105.508 E11.44200
G1 X85.600 Y103.170 E11.53515
G1 X85.293 Y101.129 E11.61374
G1 X85.285 Y99.081 E11.69170
G1 X85.636 Y96.648 E11.78531
G1 X86.393 Y94.322 E11.87846
G1 X87.318 Y92.472 E11.95720
G1 X88.496 Y90.783 E12.03564
G1 X90.092 Y89.091 E12.12420
G1 X90.358 Y89.342 F7200.000
G1 F1200
G1 X92.187 Y87.933 E12.21213
G1 X94.265 Y86.826 E12.30177
G1 X96.173 Y86.148 E12.37887
G1 X98.159 Y85.755 E12.45597
G1 X100.446 Y85.642 E12.54316
G1 X102.726 Y85.898 E12.63052
G1 X104.998 Y86.543 E12.72045
G1 X106.846 Y87.380 E12.79769
G1 X108.553 Y88.476 E12.87494
G1 X110.329 Y90.033 E12.96488
G1 X111.742 Y91.748 E13.04949
G1 X112.931 Y93.791 E13.13948
G1 X113.680 Y95.666 E13.21638
G1 X114.148 Y97.640 E13.29362
G1 X114.349 Y100.001 E13.38385
G1 X114.149 Y102.358 E13.47393
G1 X113.679 Y104.336 E13.55132
G1 X112.931 Y106.209 E13.62813
G1 X111.743 Y108.251 E13.71806
G1 X110.328 Y109.968 E13.80282
G1 X108.554 Y111.523 E13.89261
G1 X106.845 Y112.622 E13.97000
G1 X105.000 Y113.456 E14.04710
G1 X102.728 Y114.102 E14.13704
G1 X100.440 Y114.358 E14.22468
G1 X98.161 Y114.245 E14.31158
G1 X96.175 Y113.853 E14.38868
G1 X94.252 Y113.169 E14.46636
G1 X92.172 Y112.058 E14.55615
G1 X90.300 Y110.606 E14.64637
G1 X88.898 Y109.140 E14.72362
G1 X87.726 Y107.484 E14.80086
G1 X86.657 Y105.369 E14.89109
G1 X85.961 Y103.108 E14.98117
G1 X85.658 Y101.099 E15.05856
G1 X85.651 Y99.081 E15.13537
G1 X85.993 Y96.729 E15.22588
G1 X86.724 Y94.479 E15.31596
G1 X87.634 Y92.658 E15.39349
G1 X88.796 Y90.994 E15.47074
G1 X90.317 Y89.386 E15.55504
G1 F5760
G1 X92.187 Y87.933 E14.50036
G1 F5760
G1 X94.265 Y86.826 E13.45197
G1 F5760
G1 X96.173 Y86.148 E12.55028
G1 F5760
G1 X98.159 Y85.755 E11.64860
G1 F5760
G1 X100.051 Y85.662 E10.80504
G1 E10.55504 F2700.00000
G92 E0
G1 X94.745 Y93.866 F7200.000
G1 E5.00000 F2700.00000
G1 F1200
G1 X96.089 Y92.936 E5.06221
G1 X96.673 Y92.687 E5.08639
G1 X96.673 Y90.141 E5.18335
G1 X103.291 Y90.141 E5.43536
G1 X103.291 Y92.687 E5.53232
G1 X103.877 Y92.937 E5.55654
G1 X105.229 Y93.876 E5.61923
G1 X106.348 Y95.047 E5.68091
G1 X107.216 Y96.431 E5.74313
G1 X107.787 Y97.962 E5.80534
G1 X108.037 Y99.577 E5.86755
G1 X107.957 Y101.209 E5.92977
G1 X107.550 Y102.791 E5.99198
G1 X106.832 Y104.259 E6.05419
G1 X105.834 Y105.552 E6.11641
G1 X104.595 Y106.617 E6.17862
G1 X103.167 Y107.411 E6.24083
G1 X101.608 Y107.900 E6.30305
G1 X99.982 Y108.066 E6.36526
G1 X98.357 Y107.900 E6.42747
G1 X96.798 Y107.411 E6.48968
G1 X95.370 Y106.617 E6.55190
G1 X94.131 Y105.552 E6.61411
G1 X93.132 Y104.259 E6.67632
G1 X92.415 Y102.791 E6.73854
G1 X92.008 Y101.209 E6.80075
G1 X91.928 Y99.577 E6.86296
G1 X92.178 Y97.962 E6.92518
G1 X92.749 Y96.431 E6.98739
G1 X93.617 Y95.047 E7.04960
G1 X94.704 Y93.909 E7.10953
G1 X94.969 Y94.162 F7200.000
G1 F1200
G1 X96.267 Y93.259 E7.16975
G1 X97.040 Y92.930 E7.20173
G1 X97.040 Y90.507 E7.29397
G1 X102.925 Y90.507 E7.51807
G1 X102.925 Y92.930 E7.61031
G1 X103.699 Y93.259 E7.64233
G1 X104.990 Y94.155 E7.70217
G1 X106.058 Y95.273 E7.76103
G1 X106.886 Y96.594 E7.82040
G1 X107.430 Y98.055 E7.87978
G1 X107.669 Y99.596 E7.93915
G1 X107.593 Y101.153 E7.99852
G1 X107.204 Y102.663 E8.05789
G1 X106.520 Y104.064 E8.11727
G1 X105.566 Y105.298 E8.17664
G1 X104.384 Y106.315 E8.23601
G1 X103.021 Y107.072 E8.29539
G1 X101.534 Y107.540 E8.35476
G1 X99.982 Y107.698 E8.41413
G1 X98.431 Y107.540 E8.47350
G1 X96.944 Y107.072 E8.53288
G1 X95.581 Y106.315 E8.59225
G1 X94.398 Y105.298 E8.65162
G1 X93.445 Y104.064 E8.71100
G1 X92.760 Y102.663 E8.77037
G1 X92.372 Y101.153 E8.82974
G1 X92.295 Y99.596 E8.88911
G1 X92.535 Y98.055 E8.94849
G1 X93.079 Y96.594 E9.00786
G1 X93.907 Y95.273 E9.06723
G1 X94.927 Y94.205 E9.12346
G1 X95.192 Y94.459 F7200.000
G1 F1200
G1 X96.445 Y93.581 E9.18168
G1 X97.406 Y93.172 E9.22147
G1 X97.406 Y90.874 E9.30898
G1 X102.559 Y90.874 E9.50519
G1 X102.559 Y93.172 E9.59270
G1 X103.521 Y93.581 E9.63251
G1 X104.750 Y94.435 E9.68951
G1 X105.767 Y95.499 E9.74554
G1 X106.555 Y96.757 E9.80207
G1 X107.074 Y98.148 E9.85861
G1 X107.302 Y99.615 E9.91514
G1 X107.229 Y101.098 E9.97167
G1 X106.859 Y102.536 E10.02820
G1 X106.207 Y103.870 E10.08474
G1 X105.299 Y105.045 E10.14127
G1 X104.174 Y106.013 E10.19780
G1 X102.876 Y106.734 E10.25433
G1 X101.459 Y107.179 E10.31087
G1 X99.982 Y107.329 E10.36740
G1 X98.505 Y107.179 E10.42393
G1 X97.089 Y106.734 E10.48046
G1 X95.791 Y106.013 E10.53700
G1 X94.666 Y105.045 E10.59353
G1 X93.758 Y103.870 E10.65006
G1 X93.106 Y102.536 E10.70659
G1 X92.736 Y101.098 E10.76313
G1 X92.663 Y99.615 E10.81966
G1 X92.891 Y98.148 E10.87619
G1 X93.410 Y96.757 E10.93272
G1 X94.198 Y95.499 E10.98926
G1 X95.151 Y94.502 E11.04178
G1 X95.416 Y94.755 F7200.000
G1 F1200
G1 X95.463 Y94.706 E11.04437
G1 X96.622 Y93.904 E11.09806
G1 X97.772 Y93.414 E11.14565
G1 X97.772 Y91.240 E11.22844
G1 X102.192 Y91.240 E11.39674
G1 X102.192 Y93.414 E11.47953
G1 X103.343 Y93.904 E11.52713
G1 X104.511 Y94.715 E11.58130
G1 X105.476 Y95.725 E11.63450
G1 X106.225 Y96.920 E11.68819
G1 X106.718 Y98.241 E11.74188
G1 X106.934 Y99.635 E11.79557
G1 X106.865 Y101.043 E11.84927
G1 X106.513 Y102.409 E11.90296
G1 X105.894 Y103.675 E11.95665
G1 X105.032 Y104.791 E12.01034
G1 X103.963 Y105.711 E12.06404
G1 X102.730 Y106.396 E12.11773
G1 X101.385 Y106.818 E12.17142
G1 X99.982 Y106.961 E12.22511
G1 X98.580 Y106.818 E12.27880
G1 X97.234 Y106.396 E12.33250
G1 X96.002 Y105.711 E12.38619
G1 X94.933 Y104.791 E12.43988
G1 X94.071 Y103.675 E12.49357
G1 X93.451 Y102.409 E12.54726
G1 X93.100 Y101.043 E12.60096
G1 X93.031 Y99.635 E12.65465
G1 X93.247 Y98.241 E12.70834
G1 X93.740 Y96.920 E12.76203
G1 X94.489 Y95.725 E12.81573
G1 X95.374 Y94.798 E12.86454
G1 X95.394 Y94.690 F7200.000
G1 F5760
G1 X95.463 Y94.706 E12.80749
G1 F5760
G1 X96.622 Y93.904 E12.17957
G1 F5760
G1 X97.772 Y93.414 E11.62300
G1 F5760
G1 X97.772 Y91.240 E10.65479
G1 F5760
G1 X102.192 Y91.240 E8.68651
G1 F5760
G1 X102.192 Y92.524 E8.11454
G1 E7.86454 F2700.00000
G92 E0
G1 X101.128 Y89.775 F7200.000
G1 E5.00000 F2700.00000
G1 F1200
G1 X98.664 Y89.775 E5.09383
G1 X98.798 Y89.749 E5.09902
G1 X100.395 Y89.690 E5.15987
G1 X101.070 Y89.768 E5.18575
G1 F5760
G1 X98.664 Y89.775 E4.11434
G1 F5760
G1 X98.798 Y89.749 E4.05365
G1 F5760
G1 X100.395 Y89.690 E3.34200
G1 F5760
G1 X101.070 Y89.768 E3.03935
G1 E0.18575 F2700.00000
G92 E0
G1 X91.006 Y94.940 F7200.000
G1 E5.00000 F2700.00000
G1 F1200
G1 X91.112 Y94.726 E5.00908
G1 X92.021 Y93.434 E5.06924
G1 X93.116 Y92.297 E5.12935
G1 X94.388 Y91.330 E5.19020
G1 X95.761 Y90.583 E5.24971
G1 X96.307 Y90.387 E5.27180
G1 X96.307 Y92.445 E5.35017
G1 X95.911 Y92.614 E5.36654
G1 X94.506 Y93.585 E5.43159
G1 X93.326 Y94.821 E5.49665
G1 X92.419 Y96.268 E5.56170
G1 X91.822 Y97.869 E5.62675
G1 X91.560 Y99.557 E5.69181
G1 X91.644 Y101.264 E5.75686
G1 X92.069 Y102.918 E5.82191
G1 X92.820 Y104.453 E5.88697
G1 X93.864 Y105.805 E5.95202
G1 X95.160 Y106.919 E6.01707
G1 X96.653 Y107.749 E6.08213
G1 X98.283 Y108.261 E6.14718
G1 X99.982 Y108.434 E6.21223
G1 X101.682 Y108.261 E6.27729
G1 X103.312 Y107.749 E6.34234
G1 X104.805 Y106.919 E6.40739
G1 X106.101 Y105.805 E6.47245
G1 X107.145 Y104.453 E6.53750
G1 X107.895 Y102.918 E6.60255
G1 X108.321 Y101.264 E6.66761
G1 X108.405 Y99.557 E6.73266
G1 X108.143 Y97.869 E6.79772
G1 X107.546 Y96.268 E6.86277
G1 X106.639 Y94.821 E6.92782
G1 X105.468 Y93.596 E6.99233
G1 X104.055 Y92.614 E7.05786
G1 X103.658 Y92.445 E7.07429
G1 X103.658 Y90.372 E7.15325
G1 X104.912 Y90.934 E7.20560
G1 X106.238 Y91.793 E7.26576
G1 X107.418 Y92.844 E7.32592
G1 X108.423 Y94.063 E7.38608
G1 X109.231 Y95.421 E7.44624
G1 X109.821 Y96.886 E7.50640
G1 X110.181 Y98.425 E7.56656
G1 X110.302 Y100.000 E7.62672
G1 X110.181 Y101.575 E7.68688
G1 X109.821 Y103.112 E7.74699
G1 X109.222 Y104.594 E7.80784
G1 X108.423 Y105.937 E7.86735
G1 X107.418 Y107.156 E7.92751
G1 X106.238 Y108.207 E7.98767
G1 X104.912 Y109.066 E8.04783
G1 X103.471 Y109.712 E8.10799
G1 X101.947 Y110.131 E8.16815
G1 X100.378 Y110.312 E8.22831
G1 X98.799 Y110.252 E8.28847
G1 X97.249 Y109.951 E8.34858
G1 X95.746 Y109.409 E8.40943
G1 X94.373 Y108.662 E8.46894
G1 X93.116 Y107.704 E8.52910
G1 X92.021 Y106.566 E8.58926
G1 X91.112 Y105.274 E8.64942
G1 X90.411 Y103.859 E8.70953
G1 X89.932 Y102.334 E8.77038
G1 X89.693 Y100.790 E8.82989
G1 X89.693 Y99.210 E8.89005
G1 X89.934 Y97.649 E8.95021
G1 X90.411 Y96.142 E9.01037
G1 X90.980 Y94.994 E9.05917
G1 X90.651 Y94.831 F7200.000
G1 F1200
G1 X90.796 Y94.539 E9.07160
G1 X91.737 Y93.200 E9.13390
G1 X92.871 Y92.022 E9.19616
G1 X94.188 Y91.021 E9.25916
G1 X95.611 Y90.248 E9.32080
G1 X97.151 Y89.695 E9.38310
G1 X98.756 Y89.384 E9.44536
G1 X100.409 Y89.323 E9.50836
G1 X102.017 Y89.508 E9.57000
G1 X103.595 Y89.942 E9.63230
G1 X105.088 Y90.611 E9.69460
G1 X106.461 Y91.501 E9.75690
G1 X107.683 Y92.589 E9.81920
G1 X108.724 Y93.852 E9.88151
G1 X109.560 Y95.258 E9.94381
G1 X110.171 Y96.775 E10.00611
G1 X110.544 Y98.369 E10.06841
G1 X110.669 Y100.000 E10.13071
G1 X110.544 Y101.631 E10.19301
G1 X110.172 Y103.224 E10.25528
G1 X109.551 Y104.757 E10.31827
G1 X108.724 Y106.148 E10.37991
G1 X107.683 Y107.411 E10.44221
G1 X106.461 Y108.499 E10.50452
G1 X105.088 Y109.389 E10.56682
G1 X103.595 Y110.058 E10.62912
G1 X102.017 Y110.492 E10.69142
G1 X100.392 Y110.679 E10.75372
G1 X98.757 Y110.617 E10.81602
G1 X97.151 Y110.305 E10.87829
G1 X95.595 Y109.744 E10.94128
G1 X94.173 Y108.970 E11.00292
G1 X92.872 Y107.978 E11.06522
G1 X91.737 Y106.800 E11.12753
G1 X90.796 Y105.461 E11.18983
G1 X90.071 Y103.996 E11.25209
G1 X89.574 Y102.418 E11.31508
G1 X89.327 Y100.818 E11.37672
G1 X89.327 Y99.182 E11.43903
G1 X89.576 Y97.565 E11.50133
G1 X90.070 Y96.005 E11.56363
G1 X90.625 Y94.885 E11.61121
G1 X90.296 Y94.722 F7200.000
G1 F1200
G1 X90.480 Y94.351 E11.62700
G1 X91.454 Y92.967 E11.69145
G1 X92.627 Y91.748 E11.75586
G1 X93.989 Y90.713 E11.82100
G1 X95.460 Y89.913 E11.88477
G1 X97.053 Y89.341 E11.94921
G1 X98.714 Y89.019 E12.01363
G1 X100.423 Y88.956 E12.07876
G1 X102.087 Y89.148 E12.14254
G1 X103.719 Y89.596 E12.20698
G1 X105.263 Y90.288 E12.27142
G1 X106.684 Y91.208 E12.33587
G1 X107.947 Y92.334 E12.40031
G1 X109.024 Y93.640 E12.46475
G1 X109.889 Y95.095 E12.52920
G1 X110.522 Y96.665 E12.59364
G1 X110.907 Y98.313 E12.65809
G1 X111.037 Y100.000 E12.72253
G1 X110.907 Y101.687 E12.78697
G1 X110.522 Y103.335 E12.85139
G1 X109.880 Y104.920 E12.91653
G1 X109.024 Y106.360 E12.98030
G1 X107.947 Y107.666 E13.04474
G1 X106.684 Y108.792 E13.10918
G1 X105.263 Y109.712 E13.17363
G1 X103.719 Y110.404 E13.23807
G1 X102.087 Y110.852 E13.30252
G1 X100.406 Y111.046 E13.36696
G1 X98.715 Y110.982 E13.43140
G1 X97.054 Y110.660 E13.49582
G1 X95.445 Y110.079 E13.56095
G1 X93.974 Y109.279 E13.62473
G1 X92.628 Y108.253 E13.68917
G1 X91.454 Y107.033 E13.75361
G1 X90.480 Y105.649 E13.81806
G1 X89.730 Y104.133 E13.88247
G1 X89.216 Y102.501 E13.94761
G1 X88.960 Y100.846 E14.01138
G1 X88.960 Y99.154 E14.07582
G1 X89.219 Y97.481 E14.14027
G1 X89.729 Y95.868 E14.20471
G1 X90.270 Y94.776 E14.25108
G1 X89.941 Y94.614 F7200.000
G1 F1200
G1 X90.164 Y94.163 E14.27023
G1 X91.170 Y92.733 E14.33681
G1 X92.383 Y91.473 E14.40338
G1 X93.790 Y90.404 E14.47066
G1 X95.310 Y89.577 E14.53656
G1 X96.956 Y88.986 E14.60315
G1 X98.672 Y88.653 E14.66972
G1 X100.438 Y88.588 E14.73699
G1 X102.157 Y88.787 E14.80290
G1 X103.843 Y89.250 E14.86948
G1 X105.439 Y89.966 E14.93607
G1 X106.907 Y90.916 E15.00265
G1 X108.212 Y92.080 E15.06924
G1 X109.325 Y93.429 E15.13582
G1 X110.218 Y94.932 E15.20241
G1 X110.872 Y96.554 E15.26900
G1 X111.270 Y98.256 E15.33558
G1 X111.404 Y100.000 E15.40217
G1 X111.270 Y101.744 E15.46875
G1 X110.872 Y103.446 E15.53532
G1 X110.209 Y105.084 E15.60260
G1 X109.325 Y106.571 E15.66850
G1 X108.212 Y107.920 E15.73509
G1 X106.907 Y109.084 E15.80167
G1 X105.439 Y110.034 E15.86826
G1 X103.843 Y110.750 E15.93485
G1 X102.157 Y111.213 E16.00143
G1 X100.420 Y111.414 E16.06802
G1 X98.672 Y111.347 E16.13460
G1 X96.956 Y111.014 E16.20117
G1 X95.294 Y110.414 E16.26845
G1 X93.774 Y109.587 E16.33435
G1 X92.383 Y108.527 E16.40094
G1 X91.170 Y107.267 E16.46752
G1 X90.164 Y105.837 E16.53411
G1 X89.389 Y104.270 E16.60068
G1 X88.858 Y102.585 E16.66795
G1 X88.594 Y100.874 E16.73386
G1 X88.594 Y99.126 E16.80044
G1 X88.861 Y97.397 E16.86703
G1 X89.389 Y95.730 E16.93362
G1 X89.915 Y94.667 E16.97877
G1 X89.586 Y94.505 F7200.000
G1 F1200
G1 X89.849 Y93.975 E17.00127
G1 X90.887 Y92.499 E17.07000
G1 X92.139 Y91.199 E17.13872
G1 X93.590 Y90.096 E17.20814
G1 X95.160 Y89.242 E17.27617
G1 X96.858 Y88.632 E17.34490
G1 X98.630 Y88.288 E17.41362
G1 X100.452 Y88.221 E17.48304
G1 X102.227 Y88.426 E17.55108
G1 X103.967 Y88.905 E17.61980
G1 X105.614 Y89.643 E17.68853
G1 X107.129 Y90.624 E17.75726
G1 X108.477 Y91.825 E17.82599
G1 X109.625 Y93.217 E17.89472
G1 X110.548 Y94.769 E17.96344
G1 X111.222 Y96.443 E18.03217
G1 X111.634 Y98.200 E18.10090
G1 X111.772 Y100.000 E18.16963
G1 X111.634 Y101.800 E18.23835
G1 X111.222 Y103.557 E18.30708
G1 X110.538 Y105.247 E18.37649
G1 X109.625 Y106.783 E18.44453
