; generated by Slic3r 1.37.2-prusa3d-win64 on 2018-01-21 at 14:54:21

; 

; external perimeters extrusion width = 0.45mm
; perimeters extrusion width = 0.45mm
; infill extrusion width = 0.45mm
; solid infill extrusion width = 0.45mm
; top infill extrusion width = 0.42mm
; support material extrusion width = 0.35mm
; first layer extrusion width = 0.42mm

M107
G90        ;absolute positioning
G28 ; home all axes
G1 Z5 F5000 ; lift nozzle
M140 S55 ; set bed temp
M190 S55 ; wait for bed temp
M104 S210 ; set extruder temp
M109 S210 ; wait for extruder temp
G1 Y-2.0 F1000.0 ; go outside pritn area
G1 Z0 F1000 ; lift nozzle
G1 X60.0 E9.0  F1000.0 ; intro line
G1 X100.0 E12.5  F1000.0 ; intro line
G1 Z1
; Filament gcode

G21 ; set units to millimeters
G90 ; use absolute coordinates
M82 ; use absolute distances for extrusion
G92 E0
G1 E-5.00000 F2700.00000
G92 E0
G1 Z0.350 F7200.000
G1 X89.323 Y89.323 F7200.000
G1 E5.00000 F2700.00000
M204 S1000
G1 F1200
G1 X91.309 Y87.661 E5.09861
G1 X93.145 Y86.547 E5.18039
G1 X95.106 Y85.724 E5.26135
G1 X97.608 Y85.092 E5.35962
G1 X100.005 Y84.901 E5.45116
G1 X102.580 Y85.129 E5.54961
G1 X104.666 Y85.640 E5.63139
G1 X106.634 Y86.445 E5.71235
G1 X108.850 Y87.767 E5.81062
G1 X110.677 Y89.323 E5.90199
G1 X112.339 Y91.309 E6.00061
G1 X113.453 Y93.145 E6.08239
G1 X114.276 Y95.106 E6.16334
G1 X114.908 Y97.608 E6.26162
G1 X115.099 Y100.000 E6.35299
G1 X114.871 Y102.580 E6.45160
G1 X114.361 Y104.662 E6.53322
G1 X113.555 Y106.634 E6.61434
G1 X112.233 Y108.850 E6.71262
G1 X110.677 Y110.677 E6.80399
G1 X108.691 Y112.339 E6.90260
G1 X106.859 Y113.451 E6.98422
G1 X104.894 Y114.276 E7.06534
G1 X102.392 Y114.908 E7.16361
G1 X100.000 Y115.099 E7.25499
G1 X97.420 Y114.871 E7.35360
G1 X95.338 Y114.361 E7.43521
G1 X93.366 Y113.555 E7.51633
G1 X91.150 Y112.233 E7.61461
G1 X89.323 Y110.677 E7.70598
G1 X87.661 Y108.691 E7.80459
G1 X86.549 Y106.859 E7.88621
G1 X85.724 Y104.894 E7.96733
G1 X85.092 Y102.392 E8.06561
G1 X84.901 Y100.000 E8.15698
G1 X85.129 Y97.420 E8.25559
G1 X85.640 Y95.334 E8.33737
G1 X86.445 Y93.366 E8.41833
G1 X87.767 Y91.150 E8.51660
G1 X89.285 Y89.369 E8.60569
G1 X89.564 Y89.604 F7200.000
G1 F1200
G1 X91.504 Y87.971 E8.70225
G1 X93.309 Y86.874 E8.78267
G1 X95.246 Y86.063 E8.86262
G1 X97.673 Y85.452 E8.95791
G1 X100.006 Y85.267 E9.04702
G1 X102.499 Y85.487 E9.14231
G1 X104.551 Y85.988 E9.22273
G1 X106.494 Y86.783 E9.30268
G1 X108.641 Y88.068 E9.39797
G1 X110.419 Y89.584 E9.48693
G1 X112.029 Y91.504 E9.58237
G1 X113.126 Y93.309 E9.66279
G1 X113.937 Y95.246 E9.74274
G1 X114.548 Y97.673 E9.83803
G1 X114.733 Y100.002 E9.92699
G1 X114.513 Y102.499 E10.02244
G1 X114.012 Y104.551 E10.10285
G1 X113.217 Y106.494 E10.18281
G1 X111.932 Y108.641 E10.27809
G1 X110.416 Y110.419 E10.36705
G1 X108.496 Y112.029 E10.46250
G1 X106.691 Y113.126 E10.54292
G1 X104.754 Y113.937 E10.62287
G1 X102.327 Y114.548 E10.71815
G1 X99.998 Y114.733 E10.80711
G1 X97.501 Y114.513 E10.90256
G1 X95.449 Y114.012 E10.98298
G1 X93.506 Y113.217 E11.06293
G1 X91.359 Y111.932 E11.15822
G1 X89.581 Y110.416 E11.24717
G1 X87.971 Y108.496 E11.34262
G1 X86.874 Y106.691 E11.42304
G1 X86.063 Y104.754 E11.50299
G1 X85.452 Y102.327 E11.59828
G1 X85.267 Y99.998 E11.68724
G1 X85.453 Y97.669 E11.77619
G1 X86.069 Y95.231 E11.87195
G1 X86.874 Y93.310 E11.95127
G1 X87.970 Y91.505 E12.03169
G1 X89.526 Y89.650 E12.12388
G1 X89.803 Y89.886 F7200.000
G1 F1200
G1 X91.698 Y88.282 E12.21841
G1 X93.478 Y87.199 E12.29775
G1 X95.386 Y86.401 E12.37650
G1 X97.734 Y85.814 E12.46867
G1 X100.004 Y85.634 E12.55537
G1 X102.416 Y85.843 E12.64754
G1 X104.440 Y86.337 E12.72687
G1 X106.353 Y87.122 E12.80563
G1 X108.429 Y88.366 E12.89779
G1 X110.159 Y89.842 E12.98436
G1 X111.718 Y91.698 E13.07667
G1 X112.801 Y93.478 E13.15600
G1 X113.599 Y95.386 E13.23476
G1 X114.186 Y97.734 E13.32692
G1 X114.366 Y100.000 E13.41348
G1 X114.157 Y102.416 E13.50579
G1 X113.663 Y104.440 E13.58513
G1 X112.878 Y106.353 E13.66389
G1 X111.634 Y108.429 E13.75605
G1 X110.158 Y110.159 E13.84261
G1 X108.302 Y111.718 E13.93492
G1 X106.522 Y112.801 E14.01426
G1 X104.614 Y113.599 E14.09301
G1 X102.266 Y114.186 E14.18517
G1 X100.000 Y114.366 E14.27174
G1 X97.584 Y114.157 E14.36405
G1 X95.560 Y113.663 E14.44338
G1 X93.647 Y112.878 E14.52214
G1 X91.571 Y111.634 E14.61430
G1 X89.841 Y110.158 E14.70086
G1 X88.282 Y108.302 E14.79317
G1 X87.199 Y106.522 E14.87251
G1 X86.401 Y104.614 E14.95127
G1 X85.814 Y102.266 E15.04343
G1 X85.634 Y100.000 E15.12999
G1 X85.843 Y97.584 E15.22230
G1 X86.337 Y95.560 E15.30164
G1 X87.122 Y93.647 E15.38039
G1 X88.366 Y91.571 E15.47256
G1 X89.764 Y89.932 E15.55458
G1 F5760
G1 X91.698 Y88.282 E14.42266
G1 F5760
G1 X93.478 Y87.199 E13.49484
G1 F5760
G1 X95.386 Y86.401 E12.57378
G1 F5760
G1 X97.734 Y85.814 E11.49595
G1 F5760
G1 X99.282 Y85.691 E10.80458
G1 E10.55458 F2700.00000
G92 E0
G1 X94.342 Y94.306 F7200.000
G1 E5.00000 F2700.00000
G1 F1200
G1 X94.763 Y93.866 E5.02321
G1 X96.107 Y92.936 E5.08542
G1 X96.691 Y92.687 E5.10960
G1 X96.691 Y90.141 E5.20656
G1 X103.309 Y90.141 E5.45856
G1 X103.309 Y92.687 E5.55553
G1 X103.893 Y92.936 E5.57970
G1 X105.238 Y93.866 E5.64196
G1 X106.372 Y95.057 E5.70458
G1 X107.233 Y96.431 E5.76634
G1 X107.804 Y97.962 E5.82855
G1 X108.055 Y99.577 E5.89076
G1 X107.975 Y101.209 E5.95298
G1 X107.568 Y102.791 E6.01519
G1 X106.850 Y104.259 E6.07740
G1 X105.851 Y105.552 E6.13961
G1 X104.612 Y106.617 E6.20183
G1 X103.184 Y107.411 E6.26404
G1 X101.625 Y107.900 E6.32625
G1 X100.000 Y108.066 E6.38847
G1 X98.375 Y107.900 E6.45068
G1 X96.816 Y107.411 E6.51289
G1 X95.388 Y106.617 E6.57511
G1 X94.149 Y105.552 E6.63732
G1 X93.150 Y104.259 E6.69953
G1 X92.432 Y102.791 E6.76175
G1 X92.025 Y101.209 E6.82396
G1 X91.945 Y99.577 E6.88617
G1 X92.196 Y97.962 E6.94839
G1 X92.767 Y96.431 E7.01060
G1 X93.634 Y95.047 E7.07281
G1 X94.301 Y94.350 E7.10953
G1 X94.565 Y94.603 F7200.000
G1 F1200
G1 X95.002 Y94.146 E7.13360
G1 X96.284 Y93.259 E7.19298
G1 X97.057 Y92.930 E7.22496
G1 X97.057 Y90.507 E7.31720
G1 X102.943 Y90.507 E7.54130
G1 X102.943 Y92.930 E7.63354
G1 X103.716 Y93.259 E7.66552
G1 X104.999 Y94.146 E7.72492
G1 X106.081 Y95.283 E7.78471
G1 X106.903 Y96.594 E7.84363
G1 X107.448 Y98.055 E7.90300
G1 X107.687 Y99.596 E7.96238
G1 X107.611 Y101.153 E8.02175
G1 X107.222 Y102.663 E8.08112
G1 X106.537 Y104.064 E8.14050
G1 X105.584 Y105.298 E8.19987
G1 X104.402 Y106.315 E8.25924
G1 X103.039 Y107.072 E8.31861
G1 X101.551 Y107.540 E8.37799
G1 X100.000 Y107.698 E8.43736
G1 X98.449 Y107.540 E8.49673
G1 X96.961 Y107.072 E8.55610
G1 X95.598 Y106.315 E8.61548
G1 X94.416 Y105.298 E8.67485
G1 X93.463 Y104.064 E8.73422
G1 X92.778 Y102.663 E8.79360
G1 X92.389 Y101.153 E8.85297
G1 X92.313 Y99.596 E8.91234
G1 X92.552 Y98.055 E8.97171
G1 X93.097 Y96.594 E9.03109
G1 X93.925 Y95.273 E9.09046
G1 X94.524 Y94.646 E9.12348
G1 X94.789 Y94.899 F7200.000
G1 F1200
G1 X95.241 Y94.426 E9.14841
G1 X96.462 Y93.581 E9.20495
G1 X97.424 Y93.172 E9.24473
G1 X97.424 Y90.874 E9.33225
G1 X102.576 Y90.874 E9.52845
G1 X102.576 Y93.172 E9.61596
G1 X103.538 Y93.581 E9.65575
G1 X104.759 Y94.426 E9.71230
G1 X105.791 Y95.509 E9.76924
G1 X106.573 Y96.757 E9.82534
G1 X107.092 Y98.148 E9.88187
G1 X107.319 Y99.615 E9.93840
G1 X107.247 Y101.098 E9.99493
G1 X106.877 Y102.536 E10.05147
G1 X106.224 Y103.870 E10.10800
G1 X105.317 Y105.045 E10.16453
G1 X104.191 Y106.013 E10.22106
G1 X102.893 Y106.734 E10.27760
G1 X101.477 Y107.179 E10.33413
G1 X100.000 Y107.329 E10.39066
G1 X98.523 Y107.179 E10.44719
G1 X97.107 Y106.734 E10.50373
G1 X95.809 Y106.013 E10.56026
G1 X94.683 Y105.045 E10.61679
G1 X93.776 Y103.870 E10.67332
G1 X93.123 Y102.536 E10.72986
G1 X92.753 Y101.098 E10.78639
G1 X92.681 Y99.615 E10.84292
G1 X92.908 Y98.148 E10.89945
G1 X93.427 Y96.757 E10.95599
G1 X94.215 Y95.499 E11.01252
G1 X94.747 Y94.943 E11.04183
G1 X95.012 Y95.196 F7200.000
G1 F1200
G1 X95.480 Y94.706 E11.06763
G1 X96.640 Y93.904 E11.12132
G1 X97.790 Y93.414 E11.16891
G1 X97.790 Y91.240 E11.25170
G1 X102.210 Y91.240 E11.42001
G1 X102.210 Y93.414 E11.50280
G1 X103.360 Y93.904 E11.55039
G1 X104.520 Y94.706 E11.60409
G1 X105.500 Y95.735 E11.65819
G1 X106.243 Y96.920 E11.71145
G1 X106.735 Y98.241 E11.76515
G1 X106.951 Y99.635 E11.81884
G1 X106.882 Y101.043 E11.87253
G1 X106.531 Y102.409 E11.92622
G1 X105.912 Y103.675 E11.97992
G1 X105.050 Y104.791 E12.03361
G1 X103.981 Y105.711 E12.08730
G1 X102.748 Y106.396 E12.14099
G1 X101.403 Y106.818 E12.19468
G1 X100.000 Y106.961 E12.24838
G1 X98.597 Y106.818 E12.30207
G1 X97.252 Y106.396 E12.35576
G1 X96.019 Y105.711 E12.40945
G1 X94.950 Y104.791 E12.46314
G1 X94.088 Y103.675 E12.51684
G1 X93.469 Y102.409 E12.57053
G1 X93.118 Y101.043 E12.62422
G1 X93.049 Y99.635 E12.67791
G1 X93.265 Y98.241 E12.73161
G1 X93.757 Y96.920 E12.78530
G1 X94.506 Y95.725 E12.83899
G1 X94.971 Y95.239 E12.86460
G1 X94.883 Y94.817 F7200.000
G1 F5760
G1 X95.480 Y94.706 E12.53614
G1 F5760
G1 X96.640 Y93.904 E11.90822
G1 F5760
G1 X97.790 Y93.414 E11.35166
G1 F5760
G1 X97.790 Y91.240 E10.38344
G1 F5760
G1 X102.210 Y91.240 E8.41516
G1 F5760
G1 X102.210 Y91.915 E8.11460
G1 E7.86460 F2700.00000
G92 E0
G1 X101.194 Y89.775 F7200.000
G1 E5.00000 F2700.00000
G1 F1200
G1 X98.815 Y89.775 E5.09059
G1 X100.015 Y89.682 E5.13643
G1 X101.136 Y89.770 E5.17923
G1 F5760
G1 X98.815 Y89.775 E4.14576
G1 F5760
G1 X100.015 Y89.682 E3.60970
G1 F5760
G1 X101.136 Y89.770 E3.10915
G1 E0.17923 F2700.00000
G92 E0
G1 X91.066 Y94.891 F7200.000
G1 E5.00000 F2700.00000
G1 F1200
G1 X91.651 Y93.934 E5.04270
G1 X92.703 Y92.703 E5.10436
G1 X93.934 Y91.651 E5.16602
G1 X95.315 Y90.805 E5.22768
G1 X96.325 Y90.387 E5.26928
G1 X96.325 Y92.445 E5.34765
G1 X95.929 Y92.614 E5.36402
G1 X94.524 Y93.585 E5.42907
G1 X93.344 Y94.821 E5.49413
G1 X92.436 Y96.268 E5.55918
G1 X91.840 Y97.869 E5.62423
G1 X91.578 Y99.557 E5.68929
G1 X91.661 Y101.264 E5.75434
G1 X92.087 Y102.918 E5.81940
G1 X92.837 Y104.453 E5.88445
G1 X93.882 Y105.805 E5.94950
G1 X95.177 Y106.919 E6.01456
G1 X96.670 Y107.749 E6.07961
G1 X98.300 Y108.261 E6.14466
G1 X100.000 Y108.434 E6.20972
G1 X101.700 Y108.261 E6.27477
G1 X103.330 Y107.749 E6.33982
G1 X104.823 Y106.919 E6.40488
G1 X106.118 Y105.805 E6.46993
G1 X107.163 Y104.453 E6.53498
G1 X107.913 Y102.918 E6.60004
G1 X108.339 Y101.264 E6.66509
G1 X108.422 Y99.557 E6.73014
G1 X108.160 Y97.869 E6.79520
G1 X107.564 Y96.268 E6.86025
G1 X106.663 Y94.831 E6.92483
G1 X105.477 Y93.586 E6.99030
G1 X104.071 Y92.614 E7.05540
G1 X103.675 Y92.445 E7.07177
G1 X103.675 Y90.387 E7.15014
G1 X104.685 Y90.805 E7.19175
G1 X106.066 Y91.651 E7.25341
G1 X107.297 Y92.703 E7.31507
G1 X108.349 Y93.934 E7.37673
G1 X109.194 Y95.314 E7.43834
G1 X109.818 Y96.826 E7.50061
G1 X110.192 Y98.386 E7.56170
G1 X110.319 Y100.000 E7.62335
G1 X110.192 Y101.614 E7.68501
G1 X109.814 Y103.189 E7.74667
G1 X109.195 Y104.685 E7.80833
G1 X108.349 Y106.066 E7.86999
G1 X107.297 Y107.297 E7.93165
G1 X106.066 Y108.349 E7.99331
G1 X104.686 Y109.194 E8.05493
G1 X103.174 Y109.818 E8.11720
G1 X101.614 Y110.192 E8.17828
G1 X100.000 Y110.319 E8.23994
G1 X98.387 Y110.192 E8.30156
G1 X96.797 Y109.809 E8.36383
G1 X95.315 Y109.195 E8.42491
G1 X93.934 Y108.349 E8.48657
G1 X92.703 Y107.297 E8.54823
G1 X91.651 Y106.066 E8.60989
G1 X90.806 Y104.686 E8.67150
G1 X90.182 Y103.174 E8.73377
G1 X89.808 Y101.614 E8.79486
G1 X89.681 Y100.000 E8.85652
G1 X89.808 Y98.386 E8.91818
G1 X90.186 Y96.811 E8.97984
G1 X90.805 Y95.315 E9.04150
G1 X91.034 Y94.942 E9.05817
G1 X90.722 Y94.750 F7200.000
G1 F1200
G1 X91.354 Y93.718 E9.10425
G1 X92.443 Y92.443 E9.16811
G1 X93.718 Y91.354 E9.23196
G1 X95.148 Y90.478 E9.29582
G1 X96.698 Y89.836 E9.35967
G1 X98.327 Y89.445 E9.42349
G1 X100.015 Y89.314 E9.48796
G1 X101.672 Y89.445 E9.55123
G1 X103.302 Y89.836 E9.61508
G1 X104.852 Y90.478 E9.67894
G1 X106.282 Y91.354 E9.74279
G1 X107.557 Y92.443 E9.80665
G1 X108.646 Y93.718 E9.87050
G1 X109.522 Y95.147 E9.93433
G1 X110.167 Y96.712 E9.99879
G1 X110.555 Y98.328 E10.06206
G1 X110.687 Y100.000 E10.12592
G1 X110.555 Y101.672 E10.18977
G1 X110.164 Y103.302 E10.25363
G1 X109.522 Y104.852 E10.31748
G1 X108.646 Y106.282 E10.38134
G1 X107.557 Y107.557 E10.44519
G1 X106.282 Y108.646 E10.50905
G1 X104.853 Y109.522 E10.57287
G1 X103.288 Y110.167 E10.63733
G1 X101.672 Y110.555 E10.70060
G1 X100.000 Y110.687 E10.76446
G1 X98.329 Y110.555 E10.82828
G1 X96.683 Y110.158 E10.89275
G1 X95.148 Y109.522 E10.95602
G1 X93.718 Y108.646 E11.01987
G1 X92.443 Y107.557 E11.08373
G1 X91.354 Y106.282 E11.14758
G1 X90.478 Y104.853 E11.21140
G1 X89.833 Y103.288 E11.27587
G1 X89.445 Y101.672 E11.33914
G1 X89.313 Y100.000 E11.40299
G1 X89.445 Y98.328 E11.46685
G1 X89.836 Y96.698 E11.53070
G1 X90.478 Y95.148 E11.59456
G1 X90.690 Y94.801 E11.61005
G1 X90.378 Y94.610 F7200.000
G1 F1200
G1 X91.057 Y93.502 E11.65951
G1 X92.183 Y92.183 E11.72556
G1 X93.502 Y91.057 E11.79161
G1 X94.981 Y90.150 E11.85767
G1 X96.584 Y89.487 E11.92372
G1 X98.270 Y89.082 E11.98974
G1 X100.016 Y88.947 E12.05640
G1 X101.729 Y89.082 E12.12186
G1 X103.416 Y89.487 E12.18791
G1 X105.019 Y90.150 E12.25396
G1 X106.498 Y91.057 E12.32001
G1 X107.817 Y92.183 E12.38606
G1 X108.943 Y93.502 E12.45211
G1 X109.849 Y94.981 E12.51814
G1 X110.517 Y96.599 E12.58480
G1 X110.918 Y98.271 E12.65026
G1 X111.054 Y100.000 E12.71631
G1 X110.918 Y101.729 E12.78236
G1 X110.513 Y103.416 E12.84841
G1 X109.850 Y105.019 E12.91446
G1 X108.943 Y106.498 E12.98051
G1 X107.817 Y107.817 E13.04656
G1 X106.498 Y108.943 E13.11261
G1 X105.019 Y109.849 E13.17864
G1 X103.401 Y110.517 E13.24530
G1 X101.729 Y110.918 E13.31076
G1 X100.000 Y111.054 E13.37681
G1 X98.271 Y110.918 E13.44284
G1 X96.570 Y110.507 E13.50950
G1 X94.981 Y109.850 E13.57495
G1 X93.502 Y108.943 E13.64100
G1 X92.183 Y107.817 E13.70706
G1 X91.057 Y106.498 E13.77311
G1 X90.151 Y105.019 E13.83913
G1 X89.483 Y103.401 E13.90579
G1 X89.082 Y101.729 E13.97125
G1 X88.946 Y100.000 E14.03730
G1 X89.082 Y98.271 E14.10335
G1 X89.487 Y96.584 E14.16940
G1 X90.150 Y94.981 E14.23545
G1 X90.347 Y94.661 E14.24976
G1 X90.034 Y94.470 F7200.000
G1 F1200
G1 X90.760 Y93.286 E14.30260
G1 X91.924 Y91.924 E14.37085
G1 X93.286 Y90.760 E14.43910
G1 X94.815 Y89.823 E14.50734
G1 X96.470 Y89.137 E14.57559
G1 X98.213 Y88.719 E14.64382
G1 X100.016 Y88.579 E14.71268
G1 X101.787 Y88.719 E14.78032
G1 X103.530 Y89.137 E14.84857
G1 X105.185 Y89.823 E14.91681
G1 X106.714 Y90.760 E14.98506
G1 X108.076 Y91.924 E15.05331
G1 X109.240 Y93.286 E15.12155
G1 X110.177 Y94.814 E15.18978
G1 X110.867 Y96.486 E15.25864
G1 X111.281 Y98.213 E15.32628
G1 X111.422 Y100.000 E15.39453
G1 X111.281 Y101.787 E15.46278
G1 X110.863 Y103.530 E15.53102
G1 X110.177 Y105.185 E15.59927
G1 X109.240 Y106.714 E15.66752
G1 X108.076 Y108.076 E15.73576
G1 X106.714 Y109.240 E15.80401
G1 X105.186 Y110.177 E15.87224
G1 X103.514 Y110.867 E15.94110
G1 X101.787 Y111.281 E16.00874
G1 X100.000 Y111.422 E16.07699
G1 X98.214 Y111.281 E16.14522
G1 X96.456 Y110.857 E16.21408
G1 X94.815 Y110.177 E16.28172
G1 X93.286 Y109.240 E16.34997
G1 X91.924 Y108.076 E16.41821
G1 X90.760 Y106.714 E16.48646
G1 X89.823 Y105.186 E16.55469
G1 X89.133 Y103.514 E16.62355
G1 X88.719 Y101.787 E16.69119
G1 X88.578 Y100.000 E16.75944
G1 X88.719 Y98.213 E16.82768
G1 X89.137 Y96.470 E16.89593
G1 X89.823 Y94.815 E16.96418
G1 X90.003 Y94.521 E16.97729
G1 X89.691 Y94.329 F7200.000
G1 F1200
G1 X90.462 Y93.070 E17.03352
G1 X91.664 Y91.664 E17.10396
G1 X93.070 Y90.462 E17.17441
G1 X94.648 Y89.496 E17.24485
G1 X96.357 Y88.788 E17.31529
G1 X98.156 Y88.356 E17.38573
G1 X100.016 Y88.212 E17.45678
G1 X101.844 Y88.356 E17.52661
G1 X103.643 Y88.788 E17.59705
G1 X105.352 Y89.496 E17.66749
G1 X106.930 Y90.462 E17.73794
G1 X108.336 Y91.664 E17.80838
G1 X109.538 Y93.070 E17.87882
G1 X110.504 Y94.648 E17.94926
G1 X111.216 Y96.373 E18.02031
G1 X111.644 Y98.156 E18.09014
G1 X111.789 Y100.000 E18.16058
G1 X111.644 Y101.844 E18.23102
G1 X111.212 Y103.643 E18.30147
G1 X110.504 Y105.352 E18.37191
G1 X109.538 Y106.930 E18.44235
G1 X108.336 Y108.336 E18.51279
G1 X106.930 Y109.538 E18.58323
G1 X105.352 Y110.504 E18.65367
G1 X103.627 Y111.216 E18.72472
G1 X101.844 Y111.644 E18.79455
G1 X100.000 Y111.789 E18.86500
