; generated by Slic3r 1.37.2-prusa3d-win64 on 2018-01-14 at 07:53:52

; 

; external perimeters extrusion width = 0.45mm
; perimeters extrusion width = 0.45mm
; infill extrusion width = 0.45mm
; solid infill extrusion width = 0.45mm
; top infill extrusion width = 0.42mm
; support material extrusion width = 0.35mm
; first layer extrusion width = 0.42mm

M107
M115 U3.1.0 ; tell printer latest fw version
M83  ; extruder relative mode
M104 S240 ; set extruder temp
M140 S85 ; set bed temp
M190 S85 ; wait for bed temp
M109 S240 ; wait for extruder temp
G28 W ; home all without mesh bed level
G80 ; mesh bed leveling
G1 Y-3.0 F1000.0 ; go outside print area
G92 E0.0
G1 X60.0 E9.0  F1000.0 ; intro line
G1 X100.0 E12.5  F1000.0 ; intro line
G92 E0.0
; Filament gcode

G21 ; set units to millimeters
G90 ; use absolute coordinates
M83 ; use relative distances for extrusion
;BEFORE_LAYER_CHANGE
;0.25


G1 E-0.80000 F2100.00000
G1 Z0.250 F7200.000
;AFTER_LAYER_CHANGE
;0.25
G1 X75.483 Y75.193 F7200.000
G1 E0.80000 F2100.00000
M204 S1000
G1 F1200
G1 X76.132 Y74.545 E0.03599
G1 X77.166 Y73.791 E0.05020
G1 X81.573 Y71.242 E0.19967
G1 X82.916 Y70.644 E0.05763
G1 X84.064 Y70.394 E0.04610
G1 X164.459 Y70.386 E3.15308
G1 X165.218 Y70.419 E0.02980
G1 X165.946 Y70.594 E0.02935
G1 X167.394 Y71.211 E0.06175
G1 X171.862 Y73.794 E0.20240
G1 X172.902 Y74.553 E0.05049
G1 X173.576 Y75.237 E0.03765
G1 X184.446 Y94.002 E0.85054
G1 X184.826 Y95.124 E0.04645
G1 X184.983 Y96.433 E0.05172
G1 X184.994 Y156.094 E2.33989
G1 X184.869 Y157.427 E0.05253
G1 X184.670 Y158.256 E0.03341
G1 X184.421 Y158.829 E0.02452
G1 X173.541 Y177.593 E0.85068
G1 X172.891 Y178.241 E0.03600
G1 X171.857 Y178.995 E0.05020
G1 X167.393 Y181.575 E0.20223
G1 X165.954 Y182.190 E0.06136
G1 X165.227 Y182.365 E0.02932
G1 X164.476 Y182.400 E0.02952
G1 X84.082 Y182.270 E3.15303
G1 X82.940 Y182.028 E0.04578
G1 X81.652 Y181.464 E0.05514
G1 X77.246 Y178.923 E0.19950
G1 X76.152 Y178.135 E0.05288
G1 X75.571 Y177.573 E0.03171
G1 X75.216 Y177.090 E0.02350
G1 X64.588 Y158.680 E0.83371
G1 X64.192 Y157.513 E0.04836
G1 X64.030 Y155.987 E0.06018
G1 X64.029 Y96.692 E2.32555
G1 X64.155 Y95.359 E0.05253
G1 X64.353 Y94.530 E0.03341
G1 X64.602 Y93.957 E0.02452
G1 X75.452 Y75.245 E0.84833
G1 X75.766 Y75.427 F7200.000
G1 F1200
G1 X76.374 Y74.820 E0.03371
G1 X77.372 Y74.094 E0.04838
G1 X81.747 Y71.564 E0.19822
G1 X83.028 Y70.993 E0.05501
G1 X84.090 Y70.759 E0.04265
G1 X164.459 Y70.752 E3.15206
G1 X165.170 Y70.782 E0.02790
G1 X165.855 Y70.949 E0.02765
G1 X167.228 Y71.538 E0.05859
G1 X171.656 Y74.097 E0.20062
G1 X172.665 Y74.833 E0.04895
G1 X173.295 Y75.472 E0.03520
G1 X184.123 Y94.175 E0.84761
G1 X184.471 Y95.217 E0.04307
G1 X184.618 Y96.470 E0.04949
G1 X184.628 Y156.093 E2.33844
G1 X184.507 Y157.372 E0.05038
G1 X184.288 Y158.243 E0.03521
G1 X183.943 Y158.932 E0.03022
G1 X173.253 Y177.366 E0.83573
G1 X172.649 Y177.966 E0.03342
G1 X171.652 Y178.692 E0.04838
G1 X167.223 Y181.251 E0.20062
G1 X165.855 Y181.837 E0.05835
G1 X165.173 Y182.003 E0.02753
G1 X164.473 Y182.034 E0.02750
G1 X84.106 Y181.905 E3.15199
G1 X83.048 Y181.677 E0.04244
G1 X81.814 Y181.135 E0.05285
G1 X77.436 Y178.610 E0.19822
G1 X76.381 Y177.849 E0.05102
G1 X75.847 Y177.332 E0.02914
G1 X75.530 Y176.902 E0.02095
G1 X64.910 Y158.506 E0.83308
G1 X64.548 Y157.426 E0.04468
G1 X64.396 Y155.982 E0.05697
G1 X64.396 Y96.692 E2.32532
G1 X64.518 Y95.410 E0.05054
G1 X64.737 Y94.539 E0.03520
G1 X65.086 Y93.844 E0.03052
G1 X75.736 Y75.479 E0.83262
G1 X76.049 Y75.660 F7200.000
G1 F1200
G1 X76.613 Y75.097 E0.03126
G1 X77.574 Y74.400 E0.04655
G1 X81.925 Y71.885 E0.19712
G1 X83.138 Y71.342 E0.05212
G1 X84.114 Y71.125 E0.03920
G1 X164.459 Y71.118 E3.15113
G1 X165.123 Y71.145 E0.02604
G1 X165.759 Y71.302 E0.02572
G1 X167.054 Y71.860 E0.05531
G1 X171.452 Y74.401 E0.19920
G1 X172.423 Y75.108 E0.04707
G1 X173.009 Y75.701 E0.03272
G1 X183.800 Y94.348 E0.84499
G1 X184.116 Y95.308 E0.03962
G1 X184.254 Y96.506 E0.04728
G1 X184.261 Y156.093 E2.33701
G1 X184.144 Y157.322 E0.04840
G1 X183.941 Y158.123 E0.03242
G1 X183.622 Y158.755 E0.02778
G1 X172.968 Y177.136 E0.83324
G1 X172.413 Y177.686 E0.03064
G1 X171.450 Y178.386 E0.04670
G1 X167.052 Y180.927 E0.19920
G1 X165.762 Y181.483 E0.05508
G1 X165.125 Y181.640 E0.02573
G1 X164.470 Y181.667 E0.02572
G1 X84.124 Y181.539 E3.15116
G1 X83.152 Y181.326 E0.03904
G1 X81.979 Y180.808 E0.05027
G1 X77.629 Y178.298 E0.19697
G1 X76.610 Y177.563 E0.04930
G1 X76.055 Y177.013 E0.03064
G1 X75.681 Y176.438 E0.02689
G1 X65.230 Y158.328 E0.82004
G1 X64.905 Y157.344 E0.04064
G1 X64.762 Y155.979 E0.05383
G1 X64.762 Y96.693 E2.32521
G1 X64.880 Y95.464 E0.04841
G1 X65.082 Y94.663 E0.03242
G1 X65.406 Y94.024 E0.02809
G1 X76.019 Y75.712 E0.83009
G1 F5760
G1 X76.613 Y75.097 E-0.29617
G1 F5760
G1 X77.574 Y74.400 E-0.41109
G1 F5760
G1 X77.706 Y74.323 E-0.05274
G1 E-0.04000 F2100.00000
G1 X146.063 Y98.650 F7200.000
G1 E0.80000 F2100.00000
G1 F1200
G1 X149.714 Y92.326 E0.28638
G1 X150.073 Y91.967 E0.01993
G1 X150.564 Y91.835 E0.01993
G1 X157.866 Y91.835 E0.28638
G1 X158.357 Y91.967 E0.01993
G1 X158.716 Y92.326 E0.01993
G1 X162.367 Y98.650 E0.28638
G1 X162.499 Y99.141 E0.01993
G1 X162.367 Y99.631 E0.01993
G1 X158.716 Y105.955 E0.28638
G1 X158.357 Y106.314 E0.01993
G1 X157.866 Y106.446 E0.01993
G1 X150.564 Y106.446 E0.28638
G1 X150.073 Y106.314 E0.01993
G1 X149.714 Y105.955 E0.01993
G1 X146.063 Y99.631 E0.28638
G1 X145.931 Y99.141 E0.01993
G1 X146.047 Y98.708 E0.01758
G1 X146.401 Y98.803 F7200.000
G1 F1200
G1 X150.007 Y92.551 E0.28304
G1 X150.263 Y92.295 E0.01419
G1 X150.612 Y92.202 E0.01419
G1 X157.818 Y92.202 E0.28260
G1 X158.167 Y92.295 E0.01419
G1 X158.423 Y92.551 E0.01419
G1 X162.026 Y98.791 E0.28260
G1 X162.119 Y99.141 E0.01419
G1 X162.026 Y99.490 E0.01419
G1 X158.423 Y105.730 E0.28260
G1 X158.167 Y105.986 E0.01419
G1 X157.818 Y106.080 E0.01419
G1 X150.612 Y106.080 E0.28260
G1 X150.263 Y105.986 E0.01419
G1 X150.007 Y105.730 E0.01419
G1 X146.404 Y99.490 E0.28260
G1 X146.311 Y99.141 E0.01419
G1 X146.386 Y98.860 E0.01137
G1 X146.740 Y98.955 F7200.000
G1 F1200
G1 X150.300 Y92.776 E0.27971
G1 X150.452 Y92.624 E0.00845
G1 X150.661 Y92.568 E0.00845
G1 X157.770 Y92.568 E0.27881
G1 X157.978 Y92.624 E0.00845
G1 X158.130 Y92.776 E0.00845
G1 X161.684 Y98.933 E0.27882
G1 X161.740 Y99.141 E0.00845
G1 X161.684 Y99.349 E0.00845
G1 X158.130 Y105.505 E0.27882
G1 X157.978 Y105.658 E0.00845
G1 X157.770 Y105.713 E0.00845
G1 X150.661 Y105.713 E0.27882
G1 X150.452 Y105.658 E0.00845
G1 X150.300 Y105.505 E0.00845
G1 X146.746 Y99.349 E0.27882
G1 X146.690 Y99.141 E0.00845
G1 X146.724 Y99.013 E0.00517
G1 X146.481 Y98.650 F7200.000
G1 F5760
G1 X147.815 Y97.110 E-0.76000
G1 E-0.04000 F2100.00000
G1 X180.922 Y101.671 F7200.000
G1 E0.80000 F2100.00000
G1 F1200
G1 X180.938 Y101.671 E0.00062
G1 X180.870 Y102.321 E0.02564
G1 X180.836 Y102.454 E0.00540
G1 X180.795 Y102.527 E0.00326
G1 X180.711 Y102.612 E0.00469
G1 X180.352 Y102.864 E0.01720
G1 X179.937 Y103.094 E0.01862
G1 X179.403 Y103.317 E0.02269
G1 X178.853 Y103.623 E0.02469
G1 X178.362 Y104.169 E0.02880
G1 X178.116 Y104.751 E0.02480
G1 X177.428 Y107.117 E0.09663
G1 X176.553 Y109.312 E0.09268
G1 X175.472 Y111.413 E0.09268
G1 X174.193 Y113.400 E0.09268
G1 X172.729 Y115.255 E0.09268
G1 X171.024 Y117.034 E0.09663
G1 X170.643 Y117.538 E0.02480
G1 X170.415 Y118.237 E0.02880
G1 X170.426 Y118.866 E0.02469
G1 X170.499 Y119.440 E0.02269
G1 X170.509 Y119.914 E0.01862
G1 X170.470 Y120.351 E0.01720
G1 X170.437 Y120.466 E0.00469
G1 X170.395 Y120.538 E0.00326
G1 X170.297 Y120.634 E0.00540
G1 X169.768 Y121.018 E0.02564
G1 X169.543 Y120.627 E0.01771
G1 X169.661 Y119.519 E0.04371
G1 X169.378 Y118.358 E0.04685
G1 X168.729 Y117.359 E0.04672
G1 X167.787 Y116.631 E0.04672
G1 X166.656 Y116.256 E0.04672
G1 X165.465 Y116.277 E0.04672
G1 X164.348 Y116.691 E0.04672
G1 X163.431 Y117.451 E0.04672
G1 X162.817 Y118.472 E0.04672
G1 X162.576 Y119.639 E0.04672
G1 X162.735 Y120.820 E0.04672
G1 X163.276 Y121.881 E0.04672
G1 X164.140 Y122.706 E0.04685
G1 X165.159 Y123.158 E0.04371
G1 X165.385 Y123.549 E0.01771
G1 X164.788 Y123.815 E0.02564
G1 X164.656 Y123.852 E0.00540
G1 X164.572 Y123.853 E0.00326
G1 X164.457 Y123.823 E0.00469
G1 X164.059 Y123.638 E0.01720
G1 X163.652 Y123.393 E0.01862
G1 X163.192 Y123.042 E0.02269
G1 X162.652 Y122.718 E0.02469
G1 X161.934 Y122.567 E0.02880
G1 X161.306 Y122.644 E0.02480
G1 X158.914 Y123.232 E0.09663
G1 X156.575 Y123.572 E0.09268
G1 X154.215 Y123.686 E0.09268
G1 X151.855 Y123.572 E0.09268
G1 X149.516 Y123.232 E0.09268
G1 X147.124 Y122.644 E0.09663
G1 X146.496 Y122.567 E0.02480
G1 X145.778 Y122.718 E0.02880
G1 X145.238 Y123.042 E0.02469
G1 X144.778 Y123.393 E0.02269
G1 X144.371 Y123.638 E0.01862
G1 X143.974 Y123.823 E0.01720
G1 X143.858 Y123.853 E0.00469
G1 X143.774 Y123.852 E0.00326
G1 X143.642 Y123.815 E0.00540
G1 X143.045 Y123.549 E0.02564
G1 X143.268 Y123.162 E0.01748
G1 X144.290 Y122.706 E0.04391
G1 X145.154 Y121.881 E0.04685
G1 X145.695 Y120.820 E0.04672
G1 X145.854 Y119.639 E0.04672
G1 X145.613 Y118.472 E0.04672
G1 X144.999 Y117.451 E0.04672
G1 X144.082 Y116.691 E0.04672
G1 X142.965 Y116.277 E0.04672
G1 X141.774 Y116.256 E0.04672
G1 X140.644 Y116.631 E0.04672
G1 X139.701 Y117.359 E0.04672
G1 X139.052 Y118.358 E0.04672
G1 X138.770 Y119.519 E0.04685
G1 X138.887 Y120.627 E0.04371
G1 X138.662 Y121.018 E0.01771
G1 X138.133 Y120.634 E0.02564
G1 X138.035 Y120.538 E0.00540
G1 X137.993 Y120.466 E0.00326
G1 X137.960 Y120.351 E0.00469
G1 X137.921 Y119.914 E0.01720
G1 X137.931 Y119.440 E0.01862
G1 X138.005 Y118.866 E0.02269
G1 X138.015 Y118.237 E0.02469
G1 X137.787 Y117.538 E0.02880
G1 X137.406 Y117.034 E0.02480
G1 X135.701 Y115.255 E0.09663
G1 X134.237 Y113.400 E0.09268
G1 X132.958 Y111.413 E0.09268
G1 X131.877 Y109.312 E0.09268
G1 X131.002 Y107.117 E0.09268
G1 X130.315 Y104.751 E0.09663
G1 X130.068 Y104.169 E0.02480
G1 X129.577 Y103.623 E0.02880
G1 X129.027 Y103.317 E0.02469
G1 X128.493 Y103.094 E0.02269
G1 X128.078 Y102.864 E0.01862
G1 X127.719 Y102.612 E0.01720
G1 X127.635 Y102.527 E0.00469
G1 X127.594 Y102.454 E0.00326
G1 X127.560 Y102.321 E0.00540
G1 X127.492 Y101.671 E0.02564
G1 X127.938 Y101.671 E0.01748
G1 X128.844 Y102.328 E0.04391
G1 X129.991 Y102.664 E0.04685
G1 X131.180 Y102.601 E0.04672
G1 X132.282 Y102.149 E0.04672
G1 X133.172 Y101.357 E0.04672
G1 X133.750 Y100.315 E0.04672
G1 X133.950 Y99.141 E0.04672
G1 X133.750 Y97.966 E0.04672
G1 X133.172 Y96.924 E0.04672
G1 X132.282 Y96.133 E0.04672
G1 X131.180 Y95.680 E0.04672
G1 X129.991 Y95.618 E0.04672
G1 X128.844 Y95.953 E0.04685
G1 X127.944 Y96.610 E0.04371
G1 X127.492 Y96.610 E0.01771
G1 X127.560 Y95.960 E0.02564
G1 X127.594 Y95.827 E0.00540
G1 X127.635 Y95.754 E0.00326
G1 X127.719 Y95.669 E0.00469
G1 X128.078 Y95.417 E0.01720
G1 X128.493 Y95.188 E0.01862
G1 X129.027 Y94.965 E0.02269
G1 X129.577 Y94.659 E0.02469
G1 X130.068 Y94.112 E0.02880
G1 X130.315 Y93.530 E0.02480
G1 X131.002 Y91.164 E0.09663
G1 X131.877 Y88.969 E0.09268
G1 X132.958 Y86.868 E0.09268
G1 X134.237 Y84.881 E0.09268
G1 X135.701 Y83.026 E0.09268
G1 X137.406 Y81.247 E0.09663
G1 X137.787 Y80.743 E0.02480
G1 X138.015 Y80.045 E0.02880
G1 X138.005 Y79.415 E0.02469
G1 X137.931 Y78.842 E0.02269
G1 X137.921 Y78.367 E0.01862
G1 X137.960 Y77.930 E0.01720
G1 X137.993 Y77.815 E0.00469
G1 X138.035 Y77.743 E0.00326
G1 X138.133 Y77.647 E0.00540
G1 X138.662 Y77.263 E0.02564
G1 X138.887 Y77.654 E0.01771
G1 X138.770 Y78.763 E0.04371
G1 X139.052 Y79.923 E0.04685
G1 X139.701 Y80.922 E0.04672
G1 X140.644 Y81.650 E0.04672
G1 X141.485 Y81.929 E0.03475
G1 X141.774 Y82.025 E0.01197
G1 X142.965 Y82.004 E0.04672
G1 X144.082 Y81.590 E0.04672
G1 X144.999 Y80.830 E0.04672
G1 X145.613 Y79.809 E0.04672
G1 X145.854 Y78.642 E0.04672
G1 X145.695 Y77.462 E0.04672
G1 X145.154 Y76.400 E0.04672
G1 X144.290 Y75.575 E0.04685
G1 X143.271 Y75.123 E0.04371
G1 X143.045 Y74.733 E0.01771
G1 X143.642 Y74.467 E0.02564
G1 X143.774 Y74.430 E0.00540
G1 X143.858 Y74.429 E0.00326
G1 X143.974 Y74.458 E0.00469
G1 X144.371 Y74.643 E0.01720
G1 X144.778 Y74.889 E0.01862
G1 X145.238 Y75.239 E0.02269
G1 X145.778 Y75.563 E0.02469
G1 X146.496 Y75.715 E0.02880
G1 X147.124 Y75.637 E0.02480
G1 X149.516 Y75.049 E0.09663
G1 X151.855 Y74.709 E0.09268
G1 X154.215 Y74.596 E0.09268
G1 X156.575 Y74.709 E0.09268
G1 X158.914 Y75.049 E0.09268
G1 X161.306 Y75.637 E0.09663
G1 X161.934 Y75.715 E0.02480
G1 X162.652 Y75.563 E0.02880
G1 X163.192 Y75.239 E0.02469
G1 X163.652 Y74.889 E0.02269
G1 X164.059 Y74.643 E0.01862
G1 X164.442 Y74.465 E0.01658
G1 X164.656 Y74.430 E0.00848
G1 X164.788 Y74.467 E0.00540
G1 X165.385 Y74.733 E0.02564
G1 X165.162 Y75.119 E0.01748
G1 X164.140 Y75.575 E0.04391
G1 X163.276 Y76.400 E0.04685
G1 X162.735 Y77.462 E0.04672
G1 X162.576 Y78.642 E0.04672
G1 X162.817 Y79.809 E0.04672
G1 X163.431 Y80.830 E0.04672
G1 X164.348 Y81.590 E0.04672
G1 X165.465 Y82.004 E0.04672
G1 X166.656 Y82.025 E0.04672
G1 X167.787 Y81.650 E0.04672
G1 X168.729 Y80.922 E0.04672
G1 X169.378 Y79.923 E0.04672
G1 X169.661 Y78.763 E0.04685
G1 X169.543 Y77.654 E0.04371
G1 X169.768 Y77.263 E0.01771
G1 X170.297 Y77.647 E0.02564
G1 X170.395 Y77.743 E0.00540
G1 X170.437 Y77.815 E0.00326
G1 X170.470 Y77.930 E0.00469
G1 X170.509 Y78.367 E0.01720
G1 X170.499 Y78.842 E0.01862
G1 X170.426 Y79.415 E0.02269
G1 X170.415 Y80.045 E0.02469
G1 X170.643 Y80.743 E0.02880
G1 X171.024 Y81.247 E0.02480
G1 X172.729 Y83.026 E0.09663
G1 X174.193 Y84.881 E0.09268
G1 X175.472 Y86.868 E0.09268
G1 X176.553 Y88.969 E0.09268
G1 X177.428 Y91.164 E0.09268
G1 X178.116 Y93.530 E0.09663
G1 X178.362 Y94.112 E0.02480
G1 X178.853 Y94.659 E0.02880
G1 X179.403 Y94.965 E0.02469
G1 X179.937 Y95.188 E0.02269
G1 X180.352 Y95.417 E0.01862
G1 X180.711 Y95.669 E0.01720
G1 X180.795 Y95.754 E0.00469
G1 X180.836 Y95.827 E0.00326
G1 X180.870 Y95.960 E0.00540
G1 X180.938 Y96.610 E0.02564
G1 X180.492 Y96.610 E0.01748
G1 X179.586 Y95.953 E0.04391
G1 X178.439 Y95.618 E0.04685
G1 X177.250 Y95.680 E0.04672
G1 X176.148 Y96.133 E0.04672
G1 X175.258 Y96.924 E0.04672
G1 X174.681 Y97.966 E0.04672
G1 X174.480 Y99.141 E0.04672
G1 X174.681 Y100.315 E0.04672
G1 X175.258 Y101.357 E0.04672
G1 X176.148 Y102.149 E0.04672
G1 X177.250 Y102.601 E0.04672
G1 X178.439 Y102.664 E0.04672
G1 X179.586 Y102.328 E0.04685
G1 X180.487 Y101.672 E0.04371
G1 X180.862 Y101.671 E0.01474
G1 X180.862 Y101.304 F7200.000
G1 F1200
G1 X181.030 Y101.304 E0.00659
G1 X181.210 Y101.355 E0.00730
G1 X181.279 Y101.431 E0.00403
G1 X181.313 Y101.609 E0.00711
G1 X181.231 Y102.386 E0.03063
G1 X181.179 Y102.592 E0.00834
G1 X181.091 Y102.748 E0.00704
G1 X180.950 Y102.893 E0.00791
G1 X180.547 Y103.176 E0.01931
G1 X180.096 Y103.424 E0.02018
G1 X179.563 Y103.647 E0.02266
G1 X179.084 Y103.913 E0.02148
G1 X178.675 Y104.368 E0.02400
G1 X178.461 Y104.874 E0.02155
G1 X177.775 Y107.236 E0.09648
G1 X176.887 Y109.464 E0.09406
G1 X175.789 Y111.597 E0.09406
G1 X174.492 Y113.613 E0.09406
G1 X173.006 Y115.496 E0.09406
G1 X171.304 Y117.272 E0.09648
G1 X170.972 Y117.710 E0.02155
G1 X170.783 Y118.292 E0.02400
G1 X170.792 Y118.839 E0.02148
G1 X170.865 Y119.413 E0.02266
G1 X170.875 Y119.927 E0.02018
G1 X170.832 Y120.417 E0.01931
G1 X170.777 Y120.612 E0.00791
G1 X170.686 Y120.766 E0.00704
G1 X170.534 Y120.915 E0.00834
G1 X169.902 Y121.374 E0.03063
G1 X169.731 Y121.433 E0.00711
G1 X169.630 Y121.411 E0.00403
G1 X169.497 Y121.281 E0.00730
G1 X169.180 Y120.709 E0.02566
G1 X169.172 Y120.647 E0.00247
G1 X169.290 Y119.543 E0.04352
G1 X169.037 Y118.505 E0.04191
G1 X168.456 Y117.611 E0.04182
G1 X167.612 Y116.959 E0.04182
G1 X166.600 Y116.624 E0.04182
G1 X165.534 Y116.642 E0.04182
G1 X164.534 Y117.013 E0.04182
G1 X163.713 Y117.694 E0.04182
G1 X163.163 Y118.608 E0.04182
G1 X162.948 Y119.652 E0.04182
G1 X163.090 Y120.709 E0.04182
G1 X163.574 Y121.659 E0.04182
G1 X164.347 Y122.397 E0.04191
G1 X165.361 Y122.847 E0.04352
G1 X165.411 Y122.885 E0.00247
G1 X165.749 Y123.445 E0.02566
G1 X165.794 Y123.626 E0.00730
G1 X165.763 Y123.724 E0.00403
G1 X165.626 Y123.842 E0.00711
G1 X164.913 Y124.160 E0.03063
G1 X164.708 Y124.217 E0.00834
G1 X164.528 Y124.219 E0.00704
G1 X164.333 Y124.169 E0.00791
G1 X163.886 Y123.962 E0.01931
